; G-Code generated by Simplify3D(R) Version 3.1.1
; Feb 21, 2017 at 6:34:14 AM
; Settings Summary
;   processName,Multiplier 1.0
;   applyToModels,flowrate_20mmx20mmx10mm
;   profileName,Type A Machines 2014 Series 1 (modified)
;   profileVersion,2017-02-06 10:58:35
;   baseProfile,
;   printMaterial,PLA
;   printQuality,Medium
;   printExtruders,
;   extruderName,Primary Extruder
;   extruderToolheadNumber,0
;   extruderDiameter,0.4
;   extruderAutoWidth,1
;   extruderWidth,0.48
;   extrusionMultiplier,1
;   extruderUseRetract,1
;   extruderRetractionDistance,3
;   extruderExtraRestartDistance,-0.05
;   extruderRetractionZLift,0
;   extruderRetractionSpeed,4200
;   extruderUseCoasting,1
;   extruderCoastingDistance,0.2
;   extruderUseWipe,1
;   extruderWipeDistance,2
;   primaryExtruder,0
;   layerHeight,0.2
;   topSolidLayers,0
;   bottomSolidLayers,0
;   perimeterOutlines,2
;   printPerimetersInsideOut,1
;   startPointOption,2
;   startPointOriginX,0
;   startPointOriginY,0
;   startPointOriginZ,300
;   sequentialIslands,0
;   spiralVaseMode,0
;   firstLayerHeightPercentage,90
;   firstLayerWidthPercentage,150
;   firstLayerUnderspeed,0.5
;   useRaft,0
;   raftExtruder,0
;   raftLayers,3
;   raftOffset,3
;   raftSeparationDistance,0.14
;   raftInfill,85
;   disableRaftBaseLayers,0
;   useSkirt,1
;   skirtExtruder,0
;   skirtLayers,1
;   skirtOutlines,6
;   skirtOffset,0
;   usePrimePillar,0
;   primePillarExtruder,999
;   primePillarWidth,12
;   primePillarLocation,7
;   primePillarSpeedMultiplier,1
;   useOozeShield,0
;   oozeShieldExtruder,999
;   oozeShieldOffset,2
;   oozeShieldOutlines,1
;   oozeShieldSidewallShape,1
;   oozeShieldSidewallAngle,30
;   oozeShieldSpeedMultiplier,1
;   infillExtruder,0
;   internalInfillPattern,Triangular
;   externalInfillPattern,Rectilinear
;   infillPercentage,0
;   outlineOverlapPercentage,15
;   infillExtrusionWidthPercentage,100
;   minInfillLength,5
;   infillLayerInterval,1
;   infillAngles,0,60,-60
;   overlapInfillAngles,1
;   generateSupport,0
;   supportExtruder,0
;   supportInfillPercentage,30
;   supportExtraInflation,0
;   denseSupportLayers,0
;   denseSupportInfillPercentage,70
;   supportLayerInterval,1
;   supportHorizontalPartOffset,0.3
;   supportUpperSeparationLayers,1
;   supportLowerSeparationLayers,1
;   supportType,0
;   supportGridSpacing,4
;   maxOverhangAngle,45
;   supportAngles,0
;   temperatureName,Primary Extruder,Heated Bed
;   temperatureNumber,0,1
;   temperatureSetpointCount,2,1
;   temperatureSetpointLayers,1,3,1
;   temperatureSetpointTemperatures,215,210,50
;   temperatureStabilizeAtStartup,1,1
;   temperatureHeatedBed,0,1
;   temperatureRelayBetweenLayers,0,0
;   temperatureRelayBetweenLoops,0,0
;   fanLayers,1,2
;   fanSpeeds,0,60
;   blipFanToFullPower,1
;   adjustSpeedForCooling,0
;   minSpeedLayerTime,15
;   minCoolingSpeedSlowdown,20
;   increaseFanForCooling,0
;   minFanLayerTime,45
;   maxCoolingFanSpeed,100
;   increaseFanForBridging,0
;   bridgingFanSpeed,100
;   use5D,1
;   relativeEdistances,0
;   allowEaxisZeroing,1
;   independentExtruderAxes,0
;   includeM10123,0
;   stickySupport,1
;   applyToolheadOffsets,0
;   gcodeXoffset,0
;   gcodeYoffset,0
;   gcodeZoffset,0
;   overrideMachineDefinition,1
;   machineTypeOverride,0
;   strokeXoverride,305
;   strokeYoverride,305
;   strokeZoverride,305
;   originOffsetXoverride,0
;   originOffsetYoverride,0
;   originOffsetZoverride,0
;   homeXdirOverride,-1
;   homeYdirOverride,-1
;   homeZdirOverride,-1
;   flipXoverride,1
;   flipYoverride,-1
;   flipZoverride,1
;   toolheadOffsets,0,0|0,0|0,0|0,0|0,0|0,0
;   overrideFirmwareConfiguration,1
;   firmwareTypeOverride,RepRap (Marlin/Repetier/Sprinter)
;   GPXconfigOverride,r2
;   baudRateOverride,230400
;   overridePrinterModels,1
;   printerModelsOverride
;   startingGcode,G28 ; home all axes,G1 X152.5 Y5 Z15 F9600 ; move to front of platform,G92 E0 ; zero extruder,G1 E40 F120 ; purge nozzle,G92 E0 ; zero extruder,G1 X40 Y0 Z0.2 E1.0 F9600 ; back to table,G1 X0 Y0 Z0.1 E1.0 F1000 ; wipe,G92 E0 ; zero extruder,G1 Y10 Z0.25 ; lift
;   layerChangeGcode,
;   retractionGcode,
;   toolChangeGcode,
;   endingGcode,G28 X0 ; home X-axis,G92 E0,G1 E-10 F1800 ; final retract,M107,M104 S0 ; turn off extruder,M140 S0 ; turn off bed,M84 E X Y ; disable motors
;   exportFileFormat,gcode
;   celebration,0
;   celebrationSong,Random Song
;   postProcessing,
;   defaultSpeed,3600
;   outlineUnderspeed,0.8
;   solidInfillUnderspeed,0.8
;   supportUnderspeed,0.8
;   rapidXYspeed,7200
;   rapidZspeed,1800
;   minBridgingArea,50
;   bridgingExtraInflation,0
;   bridgingExtrusionMultiplier,1
;   bridgingSpeedMultiplier,1
;   filamentDiameter,1.75
;   filamentPricePerKg,24
;   filamentDensity,1.25
;   useMinPrintHeight,0
;   minPrintHeight,0
;   useMaxPrintHeight,0
;   maxPrintHeight,90
;   useDiaphragm,0
;   diaphragmLayerInterval,20
;   robustSlicing,1
;   mergeAllIntoSolid,0
;   onlyRetractWhenCrossingOutline,1
;   retractBetweenLayers,1
;   useRetractionMinTravel,0
;   retractionMinTravel,3
;   retractWhileWiping,0
;   onlyWipeOutlines,1
;   avoidCrossingOutline,1
;   maxMovementDetourFactor,3
;   toolChangeRetractionDistance,12
;   toolChangeExtraRestartDistance,-0.5
;   toolChangeRetractionSpeed,600
;   allowThinWallGapFill,0
;   thinWallAllowedOverlapPercentage,10
;   horizontalSizeCompensation,0
G90
M82
M106 S0
M140 S50
M190 S50
M104 S215 T0
M109 S215 T0
G28 ; home all axes
G1 X152.5 Y5 Z15 F9600 ; move to front of platform
G92 E0 ; zero extruder
G1 E40 F120 ; purge nozzle
G92 E0 ; zero extruder
G1 X40 Y0 Z0.2 E1.0 F9600 ; back to table
G1 X0 Y0 Z0.1 E1.0 F1000 ; wipe
G92 E0 ; zero extruder
G1 Y10 Z0.25 ; lift
G92 E0
G1 E-3.0000 F4200
G1 Z0.180 F1800
; layer 1, Z = 0.18
T0
; tool H0.200 W0.720
; skirt
G1 X139.860 Y141.406 F7200
G1 E-0.0500 F1260
G92 E0
G1 X141.406 Y139.860 E0.1309 F1800
G1 X163.594 Y139.860 E1.4592
G1 X165.140 Y141.406 E1.5902
G1 X165.140 Y163.594 E2.9185
G1 X163.594 Y165.140 E3.0494
G1 X141.406 Y165.140 E4.3777
G1 X139.860 Y163.594 E4.5086
G1 X139.860 Y141.606 E5.8250
G1 X139.860 Y141.406 F1800
G1 X140.340 Y141.605 F7200
G92 E0
G1 X141.605 Y140.340 E0.1071 F1800
G1 X163.395 Y140.340 E1.4116
G1 X164.660 Y141.605 E1.5188
G1 X164.660 Y163.395 E2.8232
G1 X163.395 Y164.660 E2.9304
G1 X141.605 Y164.660 E4.2349
G1 X140.340 Y163.395 E4.3420
G1 X140.340 Y141.805 E5.6345
G1 X140.340 Y141.605 F1800
G1 X140.820 Y141.804 F7200
G92 E0
G1 X141.804 Y140.820 E0.0833 F1800
G1 X163.196 Y140.820 E1.3640
G1 X164.180 Y141.804 E1.4473
G1 X164.180 Y163.196 E2.7280
G1 X163.196 Y164.180 E2.8113
G1 X141.804 Y164.180 E4.0920
G1 X140.820 Y163.196 E4.1753
G1 X140.820 Y142.004 E5.4441
G1 X140.820 Y141.804 F1800
G1 X141.300 Y142.003 F7200
G92 E0
G1 X142.003 Y141.300 E0.0595 F1800
G1 X162.997 Y141.300 E1.3164
G1 X163.700 Y142.003 E1.3759
G1 X163.700 Y162.997 E2.6328
G1 X162.997 Y163.700 E2.6923
G1 X142.003 Y163.700 E3.9492
G1 X141.300 Y162.997 E4.0087
G1 X141.300 Y142.203 E5.2536
G1 X141.300 Y142.003 F1800
G1 X141.780 Y142.202 F7200
G92 E0
G1 X142.202 Y141.780 E0.0357 F1800
G1 X162.798 Y141.780 E1.2688
G1 X163.220 Y142.202 E1.3045
G1 X163.220 Y162.798 E2.5376
G1 X162.798 Y163.220 E2.5733
G1 X142.202 Y163.220 E3.8064
G1 X141.780 Y162.798 E3.8421
G1 X141.780 Y142.402 E5.0632
G1 X141.780 Y142.202 F1800
G1 X142.260 Y142.401 F7200
G92 E0
G1 X142.401 Y142.260 E0.0119 F1800
G1 X162.599 Y142.260 E1.2212
G1 X162.740 Y142.401 E1.2331
G1 X162.740 Y162.599 E2.4423
G1 X162.599 Y162.740 E2.4542
G1 X142.401 Y162.740 E3.6635
G1 X142.260 Y162.599 E3.6754
G1 X142.260 Y142.601 E4.8727
G1 X142.260 Y142.401 F1800
; inner perimeter
G1 X143.580 Y143.580 F7200
G92 E0
G1 X161.420 Y143.580 E1.0680 F1620
G1 X161.420 Y161.420 E2.1361
G1 X143.580 Y161.420 E3.2041
G1 X143.580 Y143.780 E4.2602
G1 X143.580 Y143.580 F1620
; outer perimeter
G1 X142.860 Y142.860 F7200
G92 E0
G1 X162.140 Y142.860 E1.1543 F1440
G1 X162.140 Y162.140 E2.3085
G1 X142.860 Y162.140 E3.4628
G1 X142.860 Y143.060 E4.6051
G1 X142.860 Y142.860 F1440
G92 E0
G1 E-3.0000 F4200
G1 X144.860 Y142.860 F3600
; layer 2, Z = 0.38
M106 S255
G4 P500
M106 S153
; tool H0.200 W0.480
; inner perimeter
G1 X143.220 Y143.220 F7200
G1 Z0.380 F1800
G1 E-0.0500 F4200
G92 E0
G1 X161.780 Y143.220 E0.7408 F3240
G1 X161.780 Y161.780 E1.4815
G1 X143.220 Y161.780 E2.2223
G1 X143.220 Y143.420 E2.9551
G1 X143.220 Y143.220 F3240
; outer perimeter
G1 X142.740 Y142.740 F7200
G92 E0
G1 X162.260 Y142.740 E0.7791 F2880
G1 X162.260 Y162.260 E1.5582
G1 X142.740 Y162.260 E2.3373
G1 X142.740 Y142.940 E3.1084
G1 X142.740 Y142.740 F2880
G92 E0
G1 E-3.0000 F4200
G1 X144.740 Y142.740 F3600
; layer 3, Z = 0.58
M104 S210 T0
; inner perimeter
G1 X143.220 Y143.220 F7200
G1 Z0.580 F1800
G1 E-0.0500 F4200
G92 E0
G1 X161.780 Y143.220 E0.7408 F3240
G1 X161.780 Y161.780 E1.4815
G1 X143.220 Y161.780 E2.2223
G1 X143.220 Y143.420 E2.9551
G1 X143.220 Y143.220 F3240
; outer perimeter
G1 X142.740 Y142.740 F7200
G92 E0
G1 X162.260 Y142.740 E0.7791 F2880
G1 X162.260 Y162.260 E1.5582
G1 X142.740 Y162.260 E2.3373
G1 X142.740 Y142.940 E3.1084
G1 X142.740 Y142.740 F2880
G92 E0
G1 E-3.0000 F4200
G1 X144.740 Y142.740 F3600
; layer 4, Z = 0.78
; inner perimeter
G1 X143.220 Y143.220 F7200
G1 Z0.780 F1800
G1 E-0.0500 F4200
G92 E0
G1 X161.780 Y143.220 E0.7408 F3240
G1 X161.780 Y161.780 E1.4815
G1 X143.220 Y161.780 E2.2223
G1 X143.220 Y143.420 E2.9551
G1 X143.220 Y143.220 F3240
; outer perimeter
G1 X142.740 Y142.740 F7200
G92 E0
G1 X162.260 Y142.740 E0.7791 F2880
G1 X162.260 Y162.260 E1.5582
G1 X142.740 Y162.260 E2.3373
G1 X142.740 Y142.940 E3.1084
G1 X142.740 Y142.740 F2880
G92 E0
G1 E-3.0000 F4200
G1 X144.740 Y142.740 F3600
; layer 5, Z = 0.98
; inner perimeter
G1 X143.220 Y143.220 F7200
G1 Z0.980 F1800
G1 E-0.0500 F4200
G92 E0
G1 X161.780 Y143.220 E0.7408 F3240
G1 X161.780 Y161.780 E1.4815
G1 X143.220 Y161.780 E2.2223
G1 X143.220 Y143.420 E2.9551
G1 X143.220 Y143.220 F3240
; outer perimeter
G1 X142.740 Y142.740 F7200
G92 E0
G1 X162.260 Y142.740 E0.7791 F2880
G1 X162.260 Y162.260 E1.5582
G1 X142.740 Y162.260 E2.3373
G1 X142.740 Y142.940 E3.1084
G1 X142.740 Y142.740 F2880
G92 E0
G1 E-3.0000 F4200
G1 X144.740 Y142.740 F3600
; layer 6, Z = 1.18
; inner perimeter
G1 X143.220 Y143.220 F7200
G1 Z1.180 F1800
G1 E-0.0500 F4200
G92 E0
G1 X161.780 Y143.220 E0.7408 F3240
G1 X161.780 Y161.780 E1.4815
G1 X143.220 Y161.780 E2.2223
G1 X143.220 Y143.420 E2.9551
G1 X143.220 Y143.220 F3240
; outer perimeter
G1 X142.740 Y142.740 F7200
G92 E0
G1 X162.260 Y142.740 E0.7791 F2880
G1 X162.260 Y162.260 E1.5582
G1 X142.740 Y162.260 E2.3373
G1 X142.740 Y142.940 E3.1084
G1 X142.740 Y142.740 F2880
G92 E0
G1 E-3.0000 F4200
G1 X144.740 Y142.740 F3600
; layer 7, Z = 1.38
; inner perimeter
G1 X143.220 Y143.220 F7200
G1 Z1.380 F1800
G1 E-0.0500 F4200
G92 E0
G1 X161.780 Y143.220 E0.7408 F3240
G1 X161.780 Y161.780 E1.4815
G1 X143.220 Y161.780 E2.2223
G1 X143.220 Y143.420 E2.9551
G1 X143.220 Y143.220 F3240
; outer perimeter
G1 X142.740 Y142.740 F7200
G92 E0
G1 X162.260 Y142.740 E0.7791 F2880
G1 X162.260 Y162.260 E1.5582
G1 X142.740 Y162.260 E2.3373
G1 X142.740 Y142.940 E3.1084
G1 X142.740 Y142.740 F2880
G92 E0
G1 E-3.0000 F4200
G1 X144.740 Y142.740 F3600
; layer 8, Z = 1.58
; inner perimeter
G1 X143.220 Y143.220 F7200
G1 Z1.580 F1800
G1 E-0.0500 F4200
G92 E0
G1 X161.780 Y143.220 E0.7408 F3240
G1 X161.780 Y161.780 E1.4815
G1 X143.220 Y161.780 E2.2223
G1 X143.220 Y143.420 E2.9551
G1 X143.220 Y143.220 F3240
; outer perimeter
G1 X142.740 Y142.740 F7200
G92 E0
G1 X162.260 Y142.740 E0.7791 F2880
G1 X162.260 Y162.260 E1.5582
G1 X142.740 Y162.260 E2.3373
G1 X142.740 Y142.940 E3.1084
G1 X142.740 Y142.740 F2880
G92 E0
G1 E-3.0000 F4200
G1 X144.740 Y142.740 F3600
; layer 9, Z = 1.78
; inner perimeter
G1 X143.220 Y143.220 F7200
G1 Z1.780 F1800
G1 E-0.0500 F4200
G92 E0
G1 X161.780 Y143.220 E0.7408 F3240
G1 X161.780 Y161.780 E1.4815
G1 X143.220 Y161.780 E2.2223
G1 X143.220 Y143.420 E2.9551
G1 X143.220 Y143.220 F3240
; outer perimeter
G1 X142.740 Y142.740 F7200
G92 E0
G1 X162.260 Y142.740 E0.7791 F2880
G1 X162.260 Y162.260 E1.5582
G1 X142.740 Y162.260 E2.3373
G1 X142.740 Y142.940 E3.1084
G1 X142.740 Y142.740 F2880
G92 E0
G1 E-3.0000 F4200
G1 X144.740 Y142.740 F3600
; layer 10, Z = 1.98
; inner perimeter
G1 X143.220 Y143.220 F7200
G1 Z1.980 F1800
G1 E-0.0500 F4200
G92 E0
G1 X161.780 Y143.220 E0.7408 F3240
G1 X161.780 Y161.780 E1.4815
G1 X143.220 Y161.780 E2.2223
G1 X143.220 Y143.420 E2.9551
G1 X143.220 Y143.220 F3240
; outer perimeter
G1 X142.740 Y142.740 F7200
G92 E0
G1 X162.260 Y142.740 E0.7791 F2880
G1 X162.260 Y162.260 E1.5582
G1 X142.740 Y162.260 E2.3373
G1 X142.740 Y142.940 E3.1084
G1 X142.740 Y142.740 F2880
G92 E0
G1 E-3.0000 F4200
G1 X144.740 Y142.740 F3600
; layer 11, Z = 2.18
; inner perimeter
G1 X143.220 Y143.220 F7200
G1 Z2.180 F1800
G1 E-0.0500 F4200
G92 E0
G1 X161.780 Y143.220 E0.7408 F3240
G1 X161.780 Y161.780 E1.4815
G1 X143.220 Y161.780 E2.2223
G1 X143.220 Y143.420 E2.9551
G1 X143.220 Y143.220 F3240
; outer perimeter
G1 X142.740 Y142.740 F7200
G92 E0
G1 X162.260 Y142.740 E0.7791 F2880
G1 X162.260 Y162.260 E1.5582
G1 X142.740 Y162.260 E2.3373
G1 X142.740 Y142.940 E3.1084
G1 X142.740 Y142.740 F2880
G92 E0
G1 E-3.0000 F4200
G1 X144.740 Y142.740 F3600
; layer 12, Z = 2.38
; inner perimeter
G1 X143.220 Y143.220 F7200
G1 Z2.380 F1800
G1 E-0.0500 F4200
G92 E0
G1 X161.780 Y143.220 E0.7408 F3240
G1 X161.780 Y161.780 E1.4815
G1 X143.220 Y161.780 E2.2223
G1 X143.220 Y143.420 E2.9551
G1 X143.220 Y143.220 F3240
; outer perimeter
G1 X142.740 Y142.740 F7200
G92 E0
G1 X162.260 Y142.740 E0.7791 F2880
G1 X162.260 Y162.260 E1.5582
G1 X142.740 Y162.260 E2.3373
G1 X142.740 Y142.940 E3.1084
G1 X142.740 Y142.740 F2880
G92 E0
G1 E-3.0000 F4200
G1 X144.740 Y142.740 F3600
; layer 13, Z = 2.58
; inner perimeter
G1 X143.220 Y143.220 F7200
G1 Z2.580 F1800
G1 E-0.0500 F4200
G92 E0
G1 X161.780 Y143.220 E0.7408 F3240
G1 X161.780 Y161.780 E1.4815
G1 X143.220 Y161.780 E2.2223
G1 X143.220 Y143.420 E2.9551
G1 X143.220 Y143.220 F3240
; outer perimeter
G1 X142.740 Y142.740 F7200
G92 E0
G1 X162.260 Y142.740 E0.7791 F2880
G1 X162.260 Y162.260 E1.5582
G1 X142.740 Y162.260 E2.3373
G1 X142.740 Y142.940 E3.1084
G1 X142.740 Y142.740 F2880
G92 E0
G1 E-3.0000 F4200
G1 X144.740 Y142.740 F3600
; layer 14, Z = 2.78
; inner perimeter
G1 X143.220 Y143.220 F7200
G1 Z2.780 F1800
G1 E-0.0500 F4200
G92 E0
G1 X161.780 Y143.220 E0.7408 F3240
G1 X161.780 Y161.780 E1.4815
G1 X143.220 Y161.780 E2.2223
G1 X143.220 Y143.420 E2.9551
G1 X143.220 Y143.220 F3240
; outer perimeter
G1 X142.740 Y142.740 F7200
G92 E0
G1 X162.260 Y142.740 E0.7791 F2880
G1 X162.260 Y162.260 E1.5582
G1 X142.740 Y162.260 E2.3373
G1 X142.740 Y142.940 E3.1084
G1 X142.740 Y142.740 F2880
G92 E0
G1 E-3.0000 F4200
G1 X144.740 Y142.740 F3600
; layer 15, Z = 2.98
; inner perimeter
G1 X143.220 Y143.220 F7200
G1 Z2.980 F1800
G1 E-0.0500 F4200
G92 E0
G1 X161.780 Y143.220 E0.7408 F3240
G1 X161.780 Y161.780 E1.4815
G1 X143.220 Y161.780 E2.2223
G1 X143.220 Y143.420 E2.9551
G1 X143.220 Y143.220 F3240
; outer perimeter
G1 X142.740 Y142.740 F7200
G92 E0
G1 X162.260 Y142.740 E0.7791 F2880
G1 X162.260 Y162.260 E1.5582
G1 X142.740 Y162.260 E2.3373
G1 X142.740 Y142.940 E3.1084
G1 X142.740 Y142.740 F2880
G92 E0
G1 E-3.0000 F4200
G1 X144.740 Y142.740 F3600
; layer 16, Z = 3.18
; inner perimeter
G1 X143.220 Y143.220 F7200
G1 Z3.180 F1800
G1 E-0.0500 F4200
G92 E0
G1 X161.780 Y143.220 E0.7408 F3240
G1 X161.780 Y161.780 E1.4815
G1 X143.220 Y161.780 E2.2223
G1 X143.220 Y143.420 E2.9551
G1 X143.220 Y143.220 F3240
; outer perimeter
G1 X142.740 Y142.740 F7200
G92 E0
G1 X162.260 Y142.740 E0.7791 F2880
G1 X162.260 Y162.260 E1.5582
G1 X142.740 Y162.260 E2.3373
G1 X142.740 Y142.940 E3.1084
G1 X142.740 Y142.740 F2880
G92 E0
G1 E-3.0000 F4200
G1 X144.740 Y142.740 F3600
; layer 17, Z = 3.38
; inner perimeter
G1 X143.220 Y143.220 F7200
G1 Z3.380 F1800
G1 E-0.0500 F4200
G92 E0
G1 X161.780 Y143.220 E0.7408 F3240
G1 X161.780 Y161.780 E1.4815
G1 X143.220 Y161.780 E2.2223
G1 X143.220 Y143.420 E2.9551
G1 X143.220 Y143.220 F3240
