; G-Code generated by Simplify3D(R) Version 3.1.1
; Feb 3, 2017 at 7:20:50 AM
; Settings Summary
;   processName,Temperature 195-230
;   applyToModels,test_stick_20x20x100
;   profileName,Type A Machines 2014 Series 1 (modified)
;   profileVersion,2015-05-01 08:00:00
;   baseProfile,
;   printMaterial,PLA
;   printQuality,Medium
;   printExtruders,
;   extruderName,Primary Extruder
;   extruderToolheadNumber,0
;   extruderDiameter,0.4
;   extruderAutoWidth,1
;   extruderWidth,0.48
;   extrusionMultiplier,1
;   extruderUseRetract,1
;   extruderRetractionDistance,3
;   extruderExtraRestartDistance,-0.05
;   extruderRetractionZLift,0
;   extruderRetractionSpeed,4200
;   extruderUseCoasting,1
;   extruderCoastingDistance,0.2
;   extruderUseWipe,1
;   extruderWipeDistance,2
;   primaryExtruder,0
;   layerHeight,0.2
;   topSolidLayers,0
;   bottomSolidLayers,1
;   perimeterOutlines,1
;   printPerimetersInsideOut,1
;   startPointOption,2
;   startPointOriginX,0
;   startPointOriginY,0
;   startPointOriginZ,300
;   sequentialIslands,0
;   spiralVaseMode,1
;   firstLayerHeightPercentage,90
;   firstLayerWidthPercentage,150
;   firstLayerUnderspeed,0.5
;   useRaft,0
;   raftExtruder,0
;   raftLayers,3
;   raftOffset,3
;   raftSeparationDistance,0.14
;   raftInfill,85
;   disableRaftBaseLayers,0
;   useSkirt,1
;   skirtExtruder,0
;   skirtLayers,2
;   skirtOutlines,8
;   skirtOffset,0
;   usePrimePillar,0
;   primePillarExtruder,999
;   primePillarWidth,12
;   primePillarLocation,7
;   primePillarSpeedMultiplier,1
;   useOozeShield,0
;   oozeShieldExtruder,999
;   oozeShieldOffset,2
;   oozeShieldOutlines,1
;   oozeShieldSidewallShape,1
;   oozeShieldSidewallAngle,30
;   oozeShieldSpeedMultiplier,1
;   infillExtruder,0
;   internalInfillPattern,Triangular
;   externalInfillPattern,Rectilinear
;   infillPercentage,0
;   outlineOverlapPercentage,15
;   infillExtrusionWidthPercentage,100
;   minInfillLength,5
;   infillLayerInterval,1
;   infillAngles,0,60,-60
;   overlapInfillAngles,1
;   generateSupport,0
;   supportExtruder,0
;   supportInfillPercentage,30
;   supportExtraInflation,0
;   denseSupportLayers,0
;   denseSupportInfillPercentage,70
;   supportLayerInterval,1
;   supportHorizontalPartOffset,0.3
;   supportUpperSeparationLayers,1
;   supportLowerSeparationLayers,1
;   supportType,0
;   supportGridSpacing,4
;   maxOverhangAngle,45
;   supportAngles,0
;   temperatureName,Primary Extruder,Heated Bed
;   temperatureNumber,0,1
;   temperatureSetpointCount,8,1
;   temperatureSetpointLayers,1,10,20,30,40,50,60,70,1
;   temperatureSetpointTemperatures,195,200,205,210,215,220,225,230,50
;   temperatureStabilizeAtStartup,1,1
;   temperatureHeatedBed,0,1
;   temperatureRelayBetweenLayers,0,0
;   temperatureRelayBetweenLoops,0,0
;   fanLayers,1,2
;   fanSpeeds,0,100
;   blipFanToFullPower,1
;   adjustSpeedForCooling,1
;   minSpeedLayerTime,15
;   minCoolingSpeedSlowdown,20
;   increaseFanForCooling,0
;   minFanLayerTime,45
;   maxCoolingFanSpeed,100
;   increaseFanForBridging,0
;   bridgingFanSpeed,100
;   use5D,1
;   relativeEdistances,0
;   allowEaxisZeroing,1
;   independentExtruderAxes,0
;   includeM10123,0
;   stickySupport,1
;   applyToolheadOffsets,0
;   gcodeXoffset,0
;   gcodeYoffset,0
;   gcodeZoffset,0
;   overrideMachineDefinition,1
;   machineTypeOverride,0
;   strokeXoverride,305
;   strokeYoverride,305
;   strokeZoverride,305
;   originOffsetXoverride,0
;   originOffsetYoverride,0
;   originOffsetZoverride,0
;   homeXdirOverride,-1
;   homeYdirOverride,-1
;   homeZdirOverride,-1
;   flipXoverride,1
;   flipYoverride,-1
;   flipZoverride,1
;   toolheadOffsets,0,0|0,0|0,0|0,0|0,0|0,0
;   overrideFirmwareConfiguration,1
;   firmwareTypeOverride,RepRap (Marlin/Repetier/Sprinter)
;   GPXconfigOverride,r2
;   baudRateOverride,230400
;   overridePrinterModels,1
;   printerModelsOverride
;   startingGcode,G28 ; home all axes,G1 X152.5 Y5 Z15 F9600 ; move to front of platform,G92 E0 ; zero extruder,G1 E40 F120 ; purge nozzle,G92 E0 ; zero extruder,G1 X40 Y0 Z0.2 E1.0 F9600 ; back to table,G1 X0 Y0 Z0.1 E1.0 F1000 ; wipe,G92 E0 ; zero extruder,G1 Y10 Z0.25 ; lift
;   layerChangeGcode,
;   retractionGcode,
;   toolChangeGcode,
;   endingGcode,G28 X0 ; home X-axis,G92 E0,G1 E-10 F1800 ; final retract,M107,M104 S0 ; turn off extruder,M84 E X Y ; disable motors
;   exportFileFormat,gcode
;   celebration,0
;   celebrationSong,Random Song
;   postProcessing,
;   defaultSpeed,3600
;   outlineUnderspeed,0.5
;   solidInfillUnderspeed,0.8
;   supportUnderspeed,0.8
;   rapidXYspeed,7200
;   rapidZspeed,1800
;   minBridgingArea,50
;   bridgingExtraInflation,0
;   bridgingExtrusionMultiplier,1
;   bridgingSpeedMultiplier,1
;   filamentDiameter,1.75
;   filamentPricePerKg,24
;   filamentDensity,1.25
;   useMinPrintHeight,0
;   minPrintHeight,0
;   useMaxPrintHeight,1
;   maxPrintHeight,80
;   useDiaphragm,0
;   diaphragmLayerInterval,20
;   robustSlicing,1
;   mergeAllIntoSolid,0
;   onlyRetractWhenCrossingOutline,1
;   retractBetweenLayers,1
;   useRetractionMinTravel,0
;   retractionMinTravel,3
;   retractWhileWiping,0
;   onlyWipeOutlines,1
;   avoidCrossingOutline,1
;   maxMovementDetourFactor,3
;   toolChangeRetractionDistance,12
;   toolChangeExtraRestartDistance,-0.5
;   toolChangeRetractionSpeed,600
;   allowThinWallGapFill,0
;   thinWallAllowedOverlapPercentage,10
;   horizontalSizeCompensation,0
G90
M82
M106 S0
M140 S50
M190 S50
M104 S195 T0
M109 S195 T0
G28 ; home all axes
G1 X152.5 Y5 Z15 F9600 ; move to front of platform
G92 E0 ; zero extruder
G1 E40 F120 ; purge nozzle
G92 E0 ; zero extruder
G1 X40 Y0 Z0.2 E1.0 F9600 ; back to table
G1 X0 Y0 Z0.1 E1.0 F1000 ; wipe
G92 E0 ; zero extruder
G1 Y10 Z0.25 ; lift
G92 E0
G1 E-3.0000 F4200
G1 Z0.180 F1800
; layer 1, Z = 0.18
T0
; tool H0.200 W0.720
; skirt
G1 X138.900 Y141.009 F7200
G1 E-0.0500 F1260
G92 E0
G1 X141.009 Y138.900 E0.1785 F1800
G1 X163.991 Y138.900 E1.5545
G1 X166.100 Y141.009 E1.7330
G1 X166.100 Y163.991 E3.1089
G1 X163.991 Y166.100 E3.2875
G1 X141.009 Y166.100 E4.6634
G1 X138.900 Y163.991 E4.8419
G1 X138.900 Y141.209 E6.2059
G1 X138.900 Y141.009 F1800
G1 X139.380 Y141.208 F7200
G92 E0
G1 X141.208 Y139.380 E0.1547 F1800
G1 X163.792 Y139.380 E1.5068
G1 X165.620 Y141.208 E1.6616
G1 X165.620 Y163.792 E3.0137
G1 X163.792 Y165.620 E3.1684
G1 X141.208 Y165.620 E4.5205
G1 X139.380 Y163.792 E4.6753
G1 X139.380 Y141.408 E6.0154
G1 X139.380 Y141.208 F1800
G1 X139.860 Y141.406 F7200
G92 E0
G1 X141.406 Y139.860 E0.1309 F1800
G1 X163.594 Y139.860 E1.4592
G1 X165.140 Y141.406 E1.5902
G1 X165.140 Y163.594 E2.9185
G1 X163.594 Y165.140 E3.0494
G1 X141.406 Y165.140 E4.3777
G1 X139.860 Y163.594 E4.5086
G1 X139.860 Y141.606 E5.8250
G1 X139.860 Y141.406 F1800
G1 X140.340 Y141.605 F7200
G92 E0
G1 X141.605 Y140.340 E0.1071 F1800
G1 X163.395 Y140.340 E1.4116
G1 X164.660 Y141.605 E1.5188
G1 X164.660 Y163.395 E2.8232
G1 X163.395 Y164.660 E2.9304
G1 X141.605 Y164.660 E4.2349
G1 X140.340 Y163.395 E4.3420
G1 X140.340 Y141.805 E5.6345
G1 X140.340 Y141.605 F1800
G1 X140.820 Y141.804 F7200
G92 E0
G1 X141.804 Y140.820 E0.0833 F1800
G1 X163.196 Y140.820 E1.3640
G1 X164.180 Y141.804 E1.4473
G1 X164.180 Y163.196 E2.7280
G1 X163.196 Y164.180 E2.8113
G1 X141.804 Y164.180 E4.0920
G1 X140.820 Y163.196 E4.1753
G1 X140.820 Y142.004 E5.4441
G1 X140.820 Y141.804 F1800
G1 X141.300 Y142.003 F7200
G92 E0
G1 X142.003 Y141.300 E0.0595 F1800
G1 X162.997 Y141.300 E1.3164
G1 X163.700 Y142.003 E1.3759
G1 X163.700 Y162.997 E2.6328
G1 X162.997 Y163.700 E2.6923
G1 X142.003 Y163.700 E3.9492
G1 X141.300 Y162.997 E4.0087
G1 X141.300 Y142.203 E5.2536
G1 X141.300 Y142.003 F1800
G1 X141.780 Y142.202 F7200
G92 E0
G1 X142.202 Y141.780 E0.0357 F1800
G1 X162.798 Y141.780 E1.2688
G1 X163.220 Y142.202 E1.3045
G1 X163.220 Y162.798 E2.5376
G1 X162.798 Y163.220 E2.5733
G1 X142.202 Y163.220 E3.8064
G1 X141.780 Y162.798 E3.8421
G1 X141.780 Y142.402 E5.0632
G1 X141.780 Y142.202 F1800
G1 X142.260 Y142.401 F7200
G92 E0
G1 X142.401 Y142.260 E0.0119 F1800
G1 X162.599 Y142.260 E1.2212
G1 X162.740 Y142.401 E1.2331
G1 X162.740 Y162.599 E2.4423
G1 X162.599 Y162.740 E2.4542
G1 X142.401 Y162.740 E3.6635
G1 X142.260 Y162.599 E3.6754
G1 X142.260 Y142.601 E4.8727
G1 X142.260 Y142.401 F1800
; outer perimeter
G1 X142.860 Y142.860 F7200
G92 E0
G1 X162.140 Y142.860 E1.1543 F900
G1 X162.140 Y162.140 E2.3085
G1 X142.860 Y162.140 E3.4628
G1 X142.860 Y143.060 E4.6051
G1 X142.860 Y142.860 F900
G1 X144.860 Y142.860 F3600
; solid layer
G1 X160.782 Y143.472 F7200
G92 E0
G1 X161.528 Y144.218 E0.0632 F1440
G1 X161.528 Y145.236 E0.1241
G1 X159.764 Y143.472 E0.2735
G1 X158.746 Y143.472 E0.3345
G1 X161.528 Y146.254 E0.5700
G1 X161.528 Y147.273 E0.6310
G1 X157.727 Y143.472 E0.9528
G1 X156.709 Y143.472 E1.0137
G1 X161.528 Y148.291 E1.4218
G1 X161.528 Y149.309 E1.4827
G1 X155.691 Y143.472 E1.9769
G1 X154.673 Y143.472 E2.0379
G1 X161.528 Y150.327 E2.6183
G1 X161.528 Y151.346 E2.6793
G1 X153.654 Y143.472 E3.3459
G1 X152.636 Y143.472 E3.4069
G1 X161.528 Y152.364 E4.1597
G1 X161.528 Y153.382 E4.2207
G1 X151.618 Y143.472 E5.0597
G1 X150.600 Y143.472 E5.1207
G1 X161.528 Y154.400 E6.0459
G1 X161.528 Y155.419 E6.1069
G1 X149.581 Y143.472 E7.1184
G1 X148.563 Y143.472 E7.1793
G1 X161.528 Y156.437 E8.2770
G1 X161.528 Y157.455 E8.3380
G1 X147.545 Y143.472 E9.5219
G1 X146.527 Y143.472 E9.5828
G1 X161.528 Y158.473 E10.8529
G1 X161.528 Y159.492 E10.9139
G1 X145.508 Y143.472 E12.2702
G1 X144.490 Y143.472 E12.3312
G1 X161.528 Y160.510 E13.7737
G1 X161.528 Y161.528 E13.8347
G1 X143.472 Y143.472 E15.3634
G1 X143.472 Y144.490 E15.4244
G1 X160.510 Y161.528 E16.8669
G1 X159.492 Y161.528 E16.9278
G1 X143.472 Y145.508 E18.2842
G1 X143.472 Y146.527 E18.3451
G1 X158.473 Y161.528 E19.6152
G1 X157.455 Y161.528 E19.6762
G1 X143.472 Y147.545 E20.8601
G1 X143.472 Y148.563 E20.9211
G1 X156.437 Y161.528 E22.0187
G1 X155.419 Y161.528 E22.0797
G1 X143.472 Y149.581 E23.0912
G1 X143.472 Y150.600 E23.1521
G1 X154.400 Y161.528 E24.0774
G1 X153.382 Y161.528 E24.1384
G1 X143.472 Y151.618 E24.9774
G1 X143.472 Y152.636 E25.0384
G1 X152.364 Y161.528 E25.7912
G1 X151.346 Y161.528 E25.8522
G1 X143.472 Y153.654 E26.5188
G1 X143.472 Y154.673 E26.5798
G1 X150.327 Y161.528 E27.1602
G1 X149.309 Y161.528 E27.2212
G1 X143.472 Y155.691 E27.7154
G1 X143.472 Y156.709 E27.7764
G1 X148.291 Y161.528 E28.1844
G1 X147.273 Y161.528 E28.2453
G1 X143.472 Y157.727 E28.5671
G1 X143.472 Y158.745 E28.6281
G1 X146.255 Y161.528 E28.8637
G1 X145.236 Y161.528 E28.9246
G1 X143.472 Y159.764 E29.0740
G1 X143.472 Y160.782 E29.1350
G1 X144.076 Y161.386 E29.1861
G1 X144.218 Y161.528 F1440
G92 E0
G1 E-3.0000 F4200
; layer 2, Z = 0.38
M106 S255
; tool H0.200 W0.480
; skirt
G1 X141.009 Y166.100 F7200
G1 Z0.380 F1800
G1 E-0.0500 F4200
G92 E0
G1 X138.900 Y163.991 E0.1190 F720
G1 X138.900 Y141.009 E1.0363
G1 X141.009 Y138.900 E1.1553
G1 X163.991 Y138.900 E2.0726
G1 X166.100 Y141.009 E2.1916
G1 X166.100 Y163.991 E3.1089
G1 X163.991 Y166.100 E3.2280
G1 X141.209 Y166.100 E4.1372
G1 X141.009 Y166.100 F720
G1 X141.208 Y165.620 F7200
G92 E0
G1 X139.380 Y163.792 E0.1032 F720
G1 X139.380 Y141.208 E1.0046
G1 X141.208 Y139.380 E1.1077
G1 X163.792 Y139.380 E2.0091
G1 X165.620 Y141.208 E2.1123
G1 X165.620 Y163.792 E3.0137
G1 X163.792 Y165.620 E3.1169
G1 X141.408 Y165.620 E4.0103
G1 X141.208 Y165.620 F720
G1 X141.406 Y165.140 F7200
G92 E0
G1 X139.860 Y163.594 E0.0873 F720
G1 X139.860 Y141.406 E0.9728
G1 X141.406 Y139.860 E1.0601
G1 X163.594 Y139.860 E1.9456
G1 X165.140 Y141.406 E2.0329
G1 X165.140 Y163.594 E2.9185
G1 X163.594 Y165.140 E3.0058
G1 X141.606 Y165.140 E3.8833
G1 X141.406 Y165.140 F720
G1 X141.605 Y164.660 F7200
G92 E0
G1 X140.340 Y163.395 E0.0714 F720
G1 X140.340 Y141.605 E0.9411
G1 X141.605 Y140.340 E1.0125
G1 X163.395 Y140.340 E1.8822
G1 X164.660 Y141.605 E1.9536
G1 X164.660 Y163.395 E2.8232
G1 X163.395 Y164.660 E2.8947
G1 X141.805 Y164.660 E3.7563
G1 X141.605 Y164.660 F720
G1 X141.804 Y164.180 F7200
G92 E0
G1 X140.820 Y163.196 E0.0555 F720
G1 X140.820 Y141.804 E0.9093
G1 X141.804 Y140.820 E0.9649
G1 X163.196 Y140.820 E1.8187
G1 X164.180 Y141.804 E1.8742
G1 X164.180 Y163.196 E2.7280
G1 X163.196 Y164.180 E2.7836
G1 X142.004 Y164.180 E3.6294
G1 X141.804 Y164.180 F720
G1 X142.003 Y163.700 F7200
G92 E0
G1 X141.300 Y162.997 E0.0397 F720
G1 X141.300 Y142.003 E0.8776
G1 X142.003 Y141.300 E0.9173
G1 X162.997 Y141.300 E1.7552
G1 X163.700 Y142.003 E1.7949
G1 X163.700 Y162.997 E2.6328
G1 X162.997 Y163.700 E2.6725
G1 X142.203 Y163.700 E3.5024
G1 X142.003 Y163.700 F720
G1 X142.202 Y163.220 F7200
G92 E0
G1 X141.780 Y162.798 E0.0238 F720
G1 X141.780 Y142.202 E0.8459
G1 X142.202 Y141.780 E0.8697
G1 X162.798 Y141.780 E1.6917
G1 X163.220 Y142.202 E1.7155
G1 X163.220 Y162.798 E2.5376
G1 X162.798 Y163.220 E2.5614
G1 X142.402 Y163.220 E3.3754
G1 X142.202 Y163.220 F720
G1 X142.401 Y162.740 F7200
G92 E0
G1 X142.260 Y162.599 E0.0079 F720
G1 X142.260 Y142.401 E0.8141
G1 X142.401 Y142.260 E0.8220
G1 X162.599 Y142.260 E1.6282
G1 X162.740 Y142.401 E1.6362
G1 X162.740 Y162.599 E2.4423
G1 X162.599 Y162.740 E2.4503
G1 X142.601 Y162.740 E3.2485
G1 X142.401 Y162.740 F720
; outer perimeter
G1 X142.740 Y162.260 F7200
G92 E0
G1 X142.740 Y142.740 E0.7791 F360
G1 X162.260 Y142.740 E1.5582
G1 X162.260 Y162.260 E2.3373
G1 X142.940 Y162.260 E3.1084
G1 X142.740 Y162.260 F360
G1 X142.740 Y160.260 F3600
; layer 3, Z = 0.58
; outer perimeter
G1 X142.740 Y162.260 F7200
G92 E0
G1 X142.740 Y142.740 Z0.380 E0.4869 F360
G1 X162.260 Y142.740 Z0.430 E1.0712
G1 X162.260 Y162.260 Z0.480 E1.7529
G1 X142.740 Y162.260 Z0.530 E2.5320
; layer 4, Z = 0.78
; outer perimeter
G92 E0
G1 X142.740 Y142.740 Z0.580 E0.7791 F360
G1 X162.260 Y142.740 Z0.630 E1.5582
G1 X162.260 Y162.260 Z0.680 E2.3373
G1 X142.740 Y162.260 Z0.730 E3.1163
; layer 5, Z = 0.98
; outer perimeter
G92 E0
G1 X142.740 Y142.740 Z0.780 E0.7791 F360
G1 X162.260 Y142.740 Z0.830 E1.5582
G1 X162.260 Y162.260 Z0.880 E2.3373
G1 X142.740 Y162.260 Z0.930 E3.1163
; layer 6, Z = 1.18
; outer perimeter
G92 E0
G1 X142.740 Y142.740 Z0.980 E0.7791 F360
G1 X162.260 Y142.740 Z1.030 E1.5582
G1 X162.260 Y162.260 Z1.080 E2.3373
G1 X142.740 Y162.260 Z1.130 E3.1163
; layer 7, Z = 1.38
; outer perimeter
G92 E0
G1 X142.740 Y142.740 Z1.180 E0.7791 F360
G1 X162.260 Y142.740 Z1.230 E1.5582
G1 X162.260 Y162.260 Z1.280 E2.3373
G1 X142.740 Y162.260 Z1.330 E3.1163
; layer 8, Z = 1.58
; outer perimeter
G92 E0
G1 X142.740 Y142.740 Z1.380 E0.7791 F360
G1 X162.260 Y142.740 Z1.430 E1.5582
G1 X162.260 Y162.260 Z1.480 E2.3373
G1 X142.740 Y162.260 Z1.530 E3.1163
; layer 9, Z = 1.78
; outer perimeter
G92 E0
G1 X142.740 Y142.740 Z1.580 E0.7791 F360
G1 X162.260 Y142.740 Z1.630 E1.5582
G1 X162.260 Y162.260 Z1.680 E2.3373
G1 X142.740 Y162.260 Z1.730 E3.1163
; layer 10, Z = 1.98
M104 S200 T0
; outer perimeter
G92 E0
G1 X142.740 Y142.740 Z1.780 E0.7791 F360
G1 X162.260 Y142.740 Z1.830 E1.5582
G1 X162.260 Y162.260 Z1.880 E2.3373
G1 X142.740 Y162.260 Z1.930 E3.1163
; layer 11, Z = 2.18
; outer perimeter
G92 E0
G1 X142.740 Y142.740 Z1.980 E0.7791 F360
G1 X162.260 Y142.740 Z2.030 E1.5582
G1 X162.260 Y162.260 Z2.080 E2.3373
G1 X142.740 Y162.260 Z2.130 E3.1163
; layer 12, Z = 2.38
; outer perimeter
G92 E0
G1 X142.740 Y142.740 Z2.180 E0.7791 F360
G1 X162.260 Y142.740 Z2.230 E1.5582
G1 X162.260 Y162.260 Z2.280 E2.3373
G1 X142.740 Y162.260 Z2.330 E3.1163
; layer 13, Z = 2.58
; outer perimeter
G92 E0
G1 X142.740 Y142.740 Z2.380 E0.7791 F360
G1 X162.260 Y142.740 Z2.430 E1.5582
G1 X162.260 Y162.260 Z2.480 E2.3373
G1 X142.740 Y162.260 Z2.530 E3.1163
; layer 14, Z = 2.78
; outer perimeter
G92 E0
G1 X142.740 Y142.740 Z2.580 E0.7791 F360
G1 X162.260 Y142.740 Z2.630 E1.5582
G1 X162.260 Y162.260 Z2.680 E2.3373
G1 X142.740 Y162.260 Z2.730 E3.1163
; layer 15, Z = 2.98
; outer perimeter
G92 E0
G1 X142.740 Y142.740 Z2.780 E0.7791 F360
G1 X162.260 Y142.740 Z2.830 E1.5582
G1 X162.260 Y162.260 Z2.880 E2.3373
G1 X142.740 Y162.260 Z2.930 E3.1163
; layer 16, Z = 3.18
; outer perimeter
G92 E0
G1 X142.740 Y142.740 Z2.980 E0.7791 F360
G1 X162.260 Y142.740 Z3.030 E1.5582
