; G-Code generated by Simplify3D(R) Version 3.1.1
; Feb 6, 2017 at 11:03:33 AM
; Settings Summary
;   processName,Temperature 190 - 230 Prusa
;   applyToModels,test_stick_20x20x100
;   profileName,Prusa Research Original Prusa i3 MK2 (modified)
;   profileVersion,2017-02-04 23:52:36
;   baseProfile,
;   printMaterial,PLA
;   printQuality,Medium
;   printExtruders,
;   extruderName,Primary Extruder
;   extruderToolheadNumber,0
;   extruderDiameter,0.4
;   extruderAutoWidth,1
;   extruderWidth,0.48
;   extrusionMultiplier,1
;   extruderUseRetract,1
;   extruderRetractionDistance,1.5
;   extruderExtraRestartDistance,0
;   extruderRetractionZLift,0
;   extruderRetractionSpeed,1800
;   extruderUseCoasting,1
;   extruderCoastingDistance,0.2
;   extruderUseWipe,1
;   extruderWipeDistance,2
;   primaryExtruder,0
;   layerHeight,0.2
;   topSolidLayers,0
;   bottomSolidLayers,2
;   perimeterOutlines,1
;   printPerimetersInsideOut,1
;   startPointOption,2
;   startPointOriginX,0
;   startPointOriginY,0
;   startPointOriginZ,300
;   sequentialIslands,0
;   spiralVaseMode,1
;   firstLayerHeightPercentage,150
;   firstLayerWidthPercentage,100
;   firstLayerUnderspeed,0.5
;   useRaft,0
;   raftExtruder,0
;   raftLayers,3
;   raftOffset,3
;   raftSeparationDistance,0.14
;   raftInfill,85
;   disableRaftBaseLayers,1
;   useSkirt,1
;   skirtExtruder,0
;   skirtLayers,1
;   skirtOutlines,8
;   skirtOffset,0
;   usePrimePillar,0
;   primePillarExtruder,999
;   primePillarWidth,12
;   primePillarLocation,7
;   primePillarSpeedMultiplier,1
;   useOozeShield,0
;   oozeShieldExtruder,999
;   oozeShieldOffset,2
;   oozeShieldOutlines,1
;   oozeShieldSidewallShape,1
;   oozeShieldSidewallAngle,30
;   oozeShieldSpeedMultiplier,1
;   infillExtruder,0
;   internalInfillPattern,Rectilinear
;   externalInfillPattern,Rectilinear
;   infillPercentage,0
;   outlineOverlapPercentage,20
;   infillExtrusionWidthPercentage,100
;   minInfillLength,5
;   infillLayerInterval,1
;   infillAngles,45,-45
;   overlapInfillAngles,0
;   generateSupport,0
;   supportExtruder,0
;   supportInfillPercentage,20
;   supportExtraInflation,0
;   denseSupportLayers,0
;   denseSupportInfillPercentage,70
;   supportLayerInterval,1
;   supportHorizontalPartOffset,0.3
;   supportUpperSeparationLayers,1
;   supportLowerSeparationLayers,1
;   supportType,1
;   supportGridSpacing,4
;   maxOverhangAngle,45
;   supportAngles,0
;   temperatureName,Primary Extruder,Heated Bed
;   temperatureNumber,0,0
;   temperatureSetpointCount,9,1
;   temperatureSetpointLayers,1,10,20,30,40,50,60,70,80,1
;   temperatureSetpointTemperatures,190,195,200,205,210,215,220,225,230,50
;   temperatureStabilizeAtStartup,1,1
;   temperatureHeatedBed,0,1
;   temperatureRelayBetweenLayers,0,0
;   temperatureRelayBetweenLoops,0,0
;   fanLayers,1,2
;   fanSpeeds,0,70
;   blipFanToFullPower,0
;   adjustSpeedForCooling,1
;   minSpeedLayerTime,15
;   minCoolingSpeedSlowdown,20
;   increaseFanForCooling,0
;   minFanLayerTime,45
;   maxCoolingFanSpeed,100
;   increaseFanForBridging,0
;   bridgingFanSpeed,100
;   use5D,1
;   relativeEdistances,0
;   allowEaxisZeroing,1
;   independentExtruderAxes,0
;   includeM10123,0
;   stickySupport,1
;   applyToolheadOffsets,0
;   gcodeXoffset,0
;   gcodeYoffset,0
;   gcodeZoffset,0
;   overrideMachineDefinition,1
;   machineTypeOverride,0
;   strokeXoverride,250
;   strokeYoverride,210
;   strokeZoverride,200
;   originOffsetXoverride,0
;   originOffsetYoverride,0
;   originOffsetZoverride,0
;   homeXdirOverride,-1
;   homeYdirOverride,-1
;   homeZdirOverride,-1
;   flipXoverride,1
;   flipYoverride,-1
;   flipZoverride,1
;   toolheadOffsets,0,0|0,0|0,0|0,0|0,0|0,0
;   overrideFirmwareConfiguration,1
;   firmwareTypeOverride,RepRap (Marlin/Repetier/Sprinter)
;   GPXconfigOverride,r2
;   baudRateOverride,250000
;   overridePrinterModels,1
;   printerModelsOverride
;   startingGcode,M115 U3.0.7 ; use the latest firmware version,G28 W ; home all axes without mesh bed leveling,G80 ; run mesh bed leveling routine,G1 Y-3.0 F1000.0 ; prepare to prime,G92 E0 ; reset extrusion distance,G1 X60.0 E9.0  F1000.0 ; priming,G1 X100.0 E12.5  F1000.0 ; priming
;   layerChangeGcode,
;   retractionGcode,
;   toolChangeGcode,
;   endingGcode,M106 S0 ; turn off cooling fan,M104 S0 ; turn off extruder,M140 S0 ; turn off bed,G1 X0 Y200 ; part removal,M84 ; disable motors
;   exportFileFormat,gcode
;   celebration,0
;   celebrationSong,Random Song
;   postProcessing,
;   defaultSpeed,3000
;   outlineUnderspeed,0.8
;   solidInfillUnderspeed,0.8
;   supportUnderspeed,0.8
;   rapidXYspeed,4800
;   rapidZspeed,1002
;   minBridgingArea,50
;   bridgingExtraInflation,0
;   bridgingExtrusionMultiplier,1
;   bridgingSpeedMultiplier,1
;   filamentDiameter,1.75
;   filamentPricePerKg,36
;   filamentDensity,1.25
;   useMinPrintHeight,0
;   minPrintHeight,0
;   useMaxPrintHeight,1
;   maxPrintHeight,90
;   useDiaphragm,0
;   diaphragmLayerInterval,20
;   robustSlicing,1
;   mergeAllIntoSolid,0
;   onlyRetractWhenCrossingOutline,1
;   retractBetweenLayers,1
;   useRetractionMinTravel,0
;   retractionMinTravel,3
;   retractWhileWiping,1
;   onlyWipeOutlines,1
;   avoidCrossingOutline,1
;   maxMovementDetourFactor,3
;   toolChangeRetractionDistance,12
;   toolChangeExtraRestartDistance,-0.5
;   toolChangeRetractionSpeed,600
;   allowThinWallGapFill,1
;   thinWallAllowedOverlapPercentage,25
;   horizontalSizeCompensation,0
G90
M82
M106 S0
M140 S50
M190 S50
M104 S190 T0
M109 S190 T0
M115 U3.0.7 ; use the latest firmware version
G28 W ; home all axes without mesh bed leveling
G80 ; run mesh bed leveling routine
G1 Y-3.0 F1000.0 ; prepare to prime
G92 E0 ; reset extrusion distance
G1 X60.0 E9.0  F1000.0 ; priming
G1 X100.0 E12.5  F1000.0 ; priming
G92 E0
G1 E-1.5000 F1800
G1 Z0.300 F1002
; layer 1, Z = 0.3
T0
; tool H0.300 W0.480
; skirt
G1 X115.152 Y92.578 F4800
G1 E0.0000 F540
G92 E0
G1 X117.261 Y90.469 E0.1785 F1500
G1 X140.243 Y90.469 E1.5545
G1 X142.352 Y92.578 E1.7330
G1 X142.352 Y115.561 E3.1089
G1 X140.243 Y117.669 E3.2875
G1 X117.261 Y117.669 E4.6634
G1 X115.152 Y115.561 E4.8419
G1 X115.152 Y92.778 E6.2059
G1 X115.152 Y92.578 F1500
G1 X115.632 Y92.777 F4800
G92 E0
G1 X117.460 Y90.949 E0.1547 F1500
G1 X140.044 Y90.949 E1.5068
G1 X141.872 Y92.777 E1.6616
G1 X141.872 Y115.362 E3.0137
G1 X140.044 Y117.189 E3.1684
G1 X117.460 Y117.189 E4.5205
G1 X115.632 Y115.362 E4.6753
G1 X115.632 Y92.977 E6.0154
G1 X115.632 Y92.777 F1500
G1 X116.112 Y92.976 F4800
G92 E0
G1 X117.658 Y91.429 E0.1309 F1500
G1 X139.845 Y91.429 E1.4592
G1 X141.392 Y92.976 E1.5902
G1 X141.392 Y115.163 E2.9185
G1 X139.845 Y116.709 E3.0494
G1 X117.658 Y116.709 E4.3777
G1 X116.112 Y115.163 E4.5086
G1 X116.112 Y93.176 E5.8250
G1 X116.112 Y92.976 F1500
G1 X116.592 Y93.175 F4800
G92 E0
G1 X117.857 Y91.909 E0.1071 F1500
G1 X139.647 Y91.909 E1.4116
G1 X140.912 Y93.175 E1.5188
G1 X140.912 Y114.964 E2.8232
G1 X139.647 Y116.229 E2.9304
G1 X117.857 Y116.229 E4.2349
G1 X116.592 Y114.964 E4.3420
G1 X116.592 Y93.375 E5.6345
G1 X116.592 Y93.175 F1500
G1 X117.072 Y93.374 F4800
G92 E0
G1 X118.056 Y92.389 E0.0833 F1500
G1 X139.448 Y92.389 E1.3640
G1 X140.432 Y93.374 E1.4473
G1 X140.432 Y114.765 E2.7280
G1 X139.448 Y115.749 E2.8113
G1 X118.056 Y115.749 E4.0920
G1 X117.072 Y114.765 E4.1753
G1 X117.072 Y93.574 E5.4441
G1 X117.072 Y93.374 F1500
G1 X117.552 Y93.572 F4800
G92 E0
G1 X118.255 Y92.869 E0.0595 F1500
G1 X139.249 Y92.869 E1.3164
G1 X139.952 Y93.572 E1.3759
G1 X139.952 Y114.566 E2.6328
G1 X139.249 Y115.269 E2.6923
G1 X118.255 Y115.269 E3.9492
G1 X117.552 Y114.566 E4.0087
G1 X117.552 Y93.772 E5.2536
G1 X117.552 Y93.572 F1500
G1 X118.032 Y93.771 F4800
G92 E0
G1 X118.454 Y93.349 E0.0357 F1500
G1 X139.050 Y93.349 E1.2688
G1 X139.472 Y93.771 E1.3045
G1 X139.472 Y114.368 E2.5376
G1 X139.050 Y114.789 E2.5733
G1 X118.454 Y114.789 E3.8064
G1 X118.032 Y114.368 E3.8421
G1 X118.032 Y93.971 E5.0632
G1 X118.032 Y93.771 F1500
G1 X118.512 Y93.970 F4800
G92 E0
G1 X118.652 Y93.829 E0.0119 F1500
G1 X138.851 Y93.829 E1.2212
G1 X138.992 Y93.970 E1.2331
G1 X138.992 Y114.169 E2.4423
G1 X138.851 Y114.309 E2.4542
G1 X118.652 Y114.309 E3.6635
G1 X118.512 Y114.169 E3.6754
G1 X118.512 Y94.170 E4.8727
G1 X118.512 Y93.970 F1500
; outer perimeter
G1 X118.992 Y94.309 F4800
G92 E0
G1 X138.512 Y94.309 E1.1686 F1200
G1 X138.512 Y113.829 E2.3373
G1 X118.992 Y113.829 E3.5059
G1 X118.992 Y94.509 E4.6625
G1 X118.992 Y94.309 F1200
G1 X121.492 Y94.309 F3000
; solid layer
G1 X137.704 Y94.693 F4800
G92 E0
G1 X138.128 Y95.117 E0.0359 F1200
G1 X138.128 Y95.796 E0.0765
G1 X137.025 Y94.693 E0.1699
G1 X136.346 Y94.693 E0.2105
G1 X138.128 Y96.475 E0.3613
G1 X138.128 Y97.154 E0.4020
G1 X135.668 Y94.693 E0.6103
G1 X134.989 Y94.693 E0.6509
G1 X138.128 Y97.832 E0.9167
G1 X138.128 Y98.511 E0.9573
G1 X134.310 Y94.693 E1.2806
G1 X133.631 Y94.693 E1.3212
G1 X138.128 Y99.190 E1.7019
G1 X138.128 Y99.869 E1.7426
G1 X132.952 Y94.693 E2.1808
G1 X132.273 Y94.693 E2.2214
G1 X138.128 Y100.548 E2.7171
G1 X138.128 Y101.227 E2.7577
G1 X131.595 Y94.693 E3.3109
G1 X130.916 Y94.693 E3.3515
G1 X138.128 Y101.905 E3.9621
G1 X138.128 Y102.584 E4.0028
G1 X130.237 Y94.693 E4.6709
G1 X129.558 Y94.693 E4.7115
G1 X138.128 Y103.263 E5.4371
G1 X138.128 Y103.942 E5.4777
G1 X128.879 Y94.693 E6.2607
G1 X128.201 Y94.693 E6.3014
G1 X138.128 Y104.621 E7.1419
G1 X138.128 Y105.300 E7.1825
G1 X127.522 Y94.693 E8.0805
G1 X126.843 Y94.693 E8.1211
G1 X138.128 Y105.978 E9.0766
G1 X138.128 Y106.657 E9.1172
G1 X126.164 Y94.693 E10.1302
G1 X125.485 Y94.693 E10.1708
G1 X138.128 Y107.336 E11.2412
G1 X138.128 Y108.015 E11.2819
G1 X124.806 Y94.693 E12.4097
G1 X124.128 Y94.693 E12.4504
G1 X138.128 Y108.694 E13.6357
G1 X138.128 Y109.372 E13.6764
G1 X123.449 Y94.693 E14.9192
G1 X122.770 Y94.693 E14.9598
G1 X138.128 Y110.051 E16.2601
G1 X138.128 Y110.730 E16.3008
G1 X122.091 Y94.693 E17.6585
G1 X121.412 Y94.693 E17.6992
G1 X138.128 Y111.409 E19.1144
G1 X138.128 Y112.088 E19.1551
G1 X120.734 Y94.693 E20.6278
G1 X120.055 Y94.693 E20.6684
G1 X138.128 Y112.767 E22.1986
G1 X138.128 Y113.445 E22.2392
G1 X119.376 Y94.693 E23.8269
G1 X119.376 Y95.372 E23.8675
G1 X137.449 Y113.445 E25.3977
G1 X136.770 Y113.445 E25.4384
G1 X119.376 Y96.051 E26.9111
G1 X119.376 Y96.730 E26.9517
G1 X136.091 Y113.445 E28.3670
G1 X135.413 Y113.445 E28.4076
G1 X119.376 Y97.409 E29.7654
G1 X119.376 Y98.087 E29.8060
G1 X134.734 Y113.445 E31.1063
G1 X134.055 Y113.445 E31.1470
G1 X119.376 Y98.766 E32.3898
G1 X119.376 Y99.445 E32.4304
G1 X133.376 Y113.445 E33.6158
G1 X132.697 Y113.445 E33.6564
G1 X119.376 Y100.124 E34.7843
G1 X119.376 Y100.803 E34.8250
G1 X132.018 Y113.445 E35.8954
G1 X131.340 Y113.445 E35.9360
G1 X119.376 Y101.482 E36.9489
G1 X119.376 Y102.160 E36.9896
G1 X130.661 Y113.445 E37.9450
G1 X129.982 Y113.445 E37.9857
G1 X119.376 Y102.839 E38.8837
G1 X119.376 Y103.518 E38.9243
G1 X129.303 Y113.445 E39.7648
G1 X128.624 Y113.445 E39.8054
G1 X119.376 Y104.197 E40.5885
G1 X119.376 Y104.876 E40.6291
G1 X127.946 Y113.445 E41.3547
G1 X127.267 Y113.445 E41.3953
G1 X119.376 Y105.555 E42.0634
G1 X119.376 Y106.233 E42.1041
G1 X126.588 Y113.445 E42.7147
G1 X125.909 Y113.445 E42.7553
G1 X119.376 Y106.912 E43.3085
G1 X119.376 Y107.591 E43.3491
G1 X125.230 Y113.445 E43.8448
G1 X124.551 Y113.445 E43.8854
G1 X119.376 Y108.270 E44.3236
G1 X119.376 Y108.949 E44.3642
G1 X123.873 Y113.445 E44.7450
G1 X123.194 Y113.445 E44.7856
G1 X119.376 Y109.627 E45.1089
G1 X119.376 Y110.306 E45.1495
G1 X122.515 Y113.445 E45.4153
G1 X121.836 Y113.445 E45.4559
G1 X119.376 Y110.985 E45.6642
G1 X119.376 Y111.664 E45.7049
G1 X121.157 Y113.445 E45.8557
G1 X120.478 Y113.445 E45.8963
G1 X119.376 Y112.343 E45.9897
G1 X119.376 Y113.022 E46.0303
G1 X119.658 Y113.304 E46.0542
G1 X119.800 Y113.445 F1200
G92 E0
G1 E-1.5000 F1800
; layer 2, Z = 0.5
M106 S178
; tool H0.200 W0.480
; outer perimeter
G1 X118.992 Y113.829 F4800
G1 Z0.500 F1002
G1 E0.0000 F1800
G92 E0
G1 X118.992 Y94.309 E0.7791 F2400
G1 X138.512 Y94.309 E1.5582
G1 X138.512 Y113.829 E2.3373
G1 X119.192 Y113.829 E3.1084
G1 X118.992 Y113.829 F2400
G1 X118.992 Y111.329 F3000
; solid layer
G1 X119.376 Y95.117 F4800
G92 E0
G1 X119.800 Y94.693 E0.0239 F2400
G1 X120.479 Y94.693 E0.0510
G1 X119.376 Y95.796 E0.1133
G1 X119.376 Y96.475 E0.1403
G1 X121.157 Y94.693 E0.2409
G1 X121.836 Y94.693 E0.2680
G1 X119.376 Y97.154 E0.4069
G1 X119.376 Y97.833 E0.4340
G1 X122.515 Y94.693 E0.6111
G1 X123.194 Y94.693 E0.6382
G1 X119.376 Y98.511 E0.8537
G1 X119.376 Y99.190 E0.8808
G1 X123.873 Y94.693 E1.1346
G1 X124.551 Y94.693 E1.1617
G1 X119.376 Y99.869 E1.4539
G1 X119.376 Y100.548 E1.4810
G1 X125.230 Y94.693 E1.8114
G1 X125.909 Y94.693 E1.8385
G1 X119.376 Y101.227 E2.2073
G1 X119.376 Y101.905 E2.2344
G1 X126.588 Y94.693 E2.6414
G1 X127.267 Y94.693 E2.6685
G1 X119.376 Y102.584 E3.1139
G1 X119.376 Y103.263 E3.1410
G1 X127.946 Y94.693 E3.6247
G1 X128.624 Y94.693 E3.6518
G1 X119.376 Y103.942 E4.1739
G1 X119.376 Y104.621 E4.2010
G1 X129.303 Y94.693 E4.7613
G1 X129.982 Y94.693 E4.7884
G1 X119.376 Y105.300 E5.3870
G1 X119.376 Y105.978 E5.4141
G1 X130.661 Y94.693 E6.0511
G1 X131.340 Y94.693 E6.0782
G1 X119.376 Y106.657 E6.7535
G1 X119.376 Y107.336 E6.7806
G1 X132.018 Y94.693 E7.4942
G1 X132.697 Y94.693 E7.5213
G1 X119.376 Y108.015 E8.2732
G1 X119.376 Y108.694 E8.3003
G1 X133.376 Y94.693 E9.0905
G1 X134.055 Y94.693 E9.1176
G1 X119.376 Y109.372 E9.9462
G1 X119.376 Y110.051 E9.9733
G1 X134.734 Y94.693 E10.8401
G1 X135.413 Y94.693 E10.8672
G1 X119.376 Y110.730 E11.7724
G1 X119.376 Y111.409 E11.7995
G1 X136.091 Y94.693 E12.7430
G1 X136.770 Y94.693 E12.7701
G1 X119.376 Y112.088 E13.7519
G1 X119.376 Y112.767 E13.7790
G1 X137.449 Y94.693 E14.7991
G1 X138.128 Y94.693 E14.8262
G1 X119.376 Y113.445 E15.8847
G1 X120.055 Y113.445 E15.9118
G1 X138.128 Y95.372 E16.9319
G1 X138.128 Y96.051 E16.9590
G1 X120.734 Y113.445 E17.9408
G1 X121.412 Y113.445 E17.9679
G1 X138.128 Y96.730 E18.9114
G1 X138.128 Y97.409 E18.9385
G1 X122.091 Y113.445 E19.8437
G1 X122.770 Y113.445 E19.8708
G1 X138.128 Y98.088 E20.7376
G1 X138.128 Y98.766 E20.7647
G1 X123.449 Y113.445 E21.5933
G1 X124.128 Y113.445 E21.6204
G1 X138.128 Y99.445 E22.4106
G1 X138.128 Y100.124 E22.4377
G1 X124.806 Y113.445 E23.1896
G1 X125.485 Y113.445 E23.2167
G1 X138.128 Y100.803 E23.9303
G1 X138.128 Y101.482 E23.9574
G1 X126.164 Y113.445 E24.6327
G1 X126.843 Y113.445 E24.6598
G1 X138.128 Y102.160 E25.2967
G1 X138.128 Y102.839 E25.3238
G1 X127.522 Y113.445 E25.9225
G1 X128.201 Y113.445 E25.9496
G1 X138.128 Y103.518 E26.5099
G1 X138.128 Y104.197 E26.5370
G1 X128.879 Y113.445 E27.0590
G1 X129.558 Y113.445 E27.0861
G1 X138.128 Y104.876 E27.5698
G1 X138.128 Y105.555 E27.5969
G1 X130.237 Y113.445 E28.0423
G1 X130.916 Y113.445 E28.0694
G1 X138.128 Y106.233 E28.4765
G1 X138.128 Y106.912 E28.5036
G1 X131.595 Y113.445 E28.8723
G1 X132.274 Y113.445 E28.8994
G1 X138.128 Y107.591 E29.2299
G1 X138.128 Y108.270 E29.2570
G1 X132.952 Y113.445 E29.5491
G1 X133.631 Y113.445 E29.5762
G1 X138.128 Y108.949 E29.8300
G1 X138.128 Y109.628 E29.8571
G1 X134.310 Y113.445 E30.0726
G1 X134.989 Y113.445 E30.0997
G1 X138.128 Y110.306 E30.2769
G1 X138.128 Y110.985 E30.3039
G1 X135.668 Y113.445 E30.4428
G1 X136.346 Y113.445 E30.4699
G1 X138.128 Y111.664 E30.5705
G1 X138.128 Y112.343 E30.5976
G1 X137.025 Y113.445 E30.6598
G1 X137.704 Y113.445 E30.6869
G1 X137.987 Y113.163 E30.7028
G1 X138.128 Y113.022 F2400
; layer 3, Z = 0.7
; outer perimeter
G1 X138.512 Y113.829 F4800
G92 E0
G1 X118.992 Y113.829 Z0.500 E0.4869 F480
G1 X118.992 Y94.309 Z0.550 E1.0712
G1 X138.512 Y94.309 Z0.600 E1.7529
G1 X138.512 Y113.829 Z0.650 E2.5320
; layer 4, Z = 0.9
; outer perimeter
G92 E0
G1 X118.992 Y113.829 Z0.700 E0.7791 F480
G1 X118.992 Y94.309 Z0.750 E1.5582
G1 X138.512 Y94.309 Z0.800 E2.3373
G1 X138.512 Y113.829 Z0.850 E3.1163
; layer 5, Z = 1.1
; outer perimeter
G92 E0
G1 X118.992 Y113.829 Z0.900 E0.7791 F480
G1 X118.992 Y94.309 Z0.950 E1.5582
G1 X138.512 Y94.309 Z1.000 E2.3373
G1 X138.512 Y113.829 Z1.050 E3.1163
; layer 6, Z = 1.3
; outer perimeter
G92 E0
G1 X118.992 Y113.829 Z1.100 E0.7791 F480
