; G-Code generated by Simplify3D(R) Version 3.1.1
; Feb 12, 2017 at 10:07:05 PM
; Settings Summary
;   processName,Base
;   applyToModels,cup_base
;   profileName,Type A Machines 2014 Series 1 (modified)
;   profileVersion,2017-02-06 10:58:35
;   baseProfile,
;   printMaterial,PLA
;   printQuality,Fast
;   printExtruders,
;   extruderName,Primary Extruder
;   extruderToolheadNumber,0
;   extruderDiameter,0.4
;   extruderAutoWidth,1
;   extruderWidth,0.48
;   extrusionMultiplier,1
;   extruderUseRetract,1
;   extruderRetractionDistance,3
;   extruderExtraRestartDistance,-0.05
;   extruderRetractionZLift,0
;   extruderRetractionSpeed,4200
;   extruderUseCoasting,1
;   extruderCoastingDistance,0.2
;   extruderUseWipe,1
;   extruderWipeDistance,2
;   primaryExtruder,0
;   layerHeight,0.2
;   topSolidLayers,3
;   bottomSolidLayers,5
;   perimeterOutlines,5
;   printPerimetersInsideOut,1
;   startPointOption,2
;   startPointOriginX,0
;   startPointOriginY,0
;   startPointOriginZ,300
;   sequentialIslands,0
;   spiralVaseMode,0
;   firstLayerHeightPercentage,90
;   firstLayerWidthPercentage,150
;   firstLayerUnderspeed,0.5
;   useRaft,0
;   raftExtruder,0
;   raftLayers,3
;   raftOffset,3
;   raftSeparationDistance,0.14
;   raftInfill,85
;   disableRaftBaseLayers,0
;   useSkirt,0
;   skirtExtruder,0
;   skirtLayers,1
;   skirtOutlines,8
;   skirtOffset,0
;   usePrimePillar,0
;   primePillarExtruder,999
;   primePillarWidth,12
;   primePillarLocation,7
;   primePillarSpeedMultiplier,1
;   useOozeShield,0
;   oozeShieldExtruder,999
;   oozeShieldOffset,2
;   oozeShieldOutlines,1
;   oozeShieldSidewallShape,1
;   oozeShieldSidewallAngle,30
;   oozeShieldSpeedMultiplier,1
;   infillExtruder,0
;   internalInfillPattern,Rectilinear
;   externalInfillPattern,Rectilinear
;   infillPercentage,20
;   outlineOverlapPercentage,15
;   infillExtrusionWidthPercentage,100
;   minInfillLength,2
;   infillLayerInterval,1
;   infillAngles,45,-45
;   overlapInfillAngles,0
;   generateSupport,0
;   supportExtruder,0
;   supportInfillPercentage,25
;   supportExtraInflation,0
;   denseSupportLayers,0
;   denseSupportInfillPercentage,70
;   supportLayerInterval,1
;   supportHorizontalPartOffset,0.3
;   supportUpperSeparationLayers,1
;   supportLowerSeparationLayers,1
;   supportType,0
;   supportGridSpacing,4
;   maxOverhangAngle,45
;   supportAngles,0
;   temperatureName,Primary Extruder,Heated Bed
;   temperatureNumber,0,1
;   temperatureSetpointCount,1,1
;   temperatureSetpointLayers,1,1
;   temperatureSetpointTemperatures,210,50
;   temperatureStabilizeAtStartup,1,1
;   temperatureHeatedBed,0,1
;   temperatureRelayBetweenLayers,0,0
;   temperatureRelayBetweenLoops,0,0
;   fanLayers,1,3
;   fanSpeeds,0,50
;   blipFanToFullPower,1
;   adjustSpeedForCooling,1
;   minSpeedLayerTime,15
;   minCoolingSpeedSlowdown,20
;   increaseFanForCooling,0
;   minFanLayerTime,45
;   maxCoolingFanSpeed,100
;   increaseFanForBridging,0
;   bridgingFanSpeed,100
;   use5D,1
;   relativeEdistances,0
;   allowEaxisZeroing,1
;   independentExtruderAxes,0
;   includeM10123,0
;   stickySupport,1
;   applyToolheadOffsets,0
;   gcodeXoffset,0
;   gcodeYoffset,0
;   gcodeZoffset,0
;   overrideMachineDefinition,1
;   machineTypeOverride,0
;   strokeXoverride,305
;   strokeYoverride,305
;   strokeZoverride,305
;   originOffsetXoverride,0
;   originOffsetYoverride,0
;   originOffsetZoverride,0
;   homeXdirOverride,-1
;   homeYdirOverride,-1
;   homeZdirOverride,-1
;   flipXoverride,1
;   flipYoverride,-1
;   flipZoverride,1
;   toolheadOffsets,0,0|0,0|0,0|0,0|0,0|0,0
;   overrideFirmwareConfiguration,1
;   firmwareTypeOverride,RepRap (Marlin/Repetier/Sprinter)
;   GPXconfigOverride,r2
;   baudRateOverride,230400
;   overridePrinterModels,1
;   printerModelsOverride
;   startingGcode,G28 ; home all axes,G1 X152.5 Y5 Z15 F9600 ; move to front of platform,G92 E0 ; zero extruder,G1 E40 F120 ; purge nozzle,G92 E0 ; zero extruder,G1 X40 Y0 Z0.2 E1.0 F9600 ; back to table,G1 X0 Y0 Z0.1 E1.0 F1000 ; wipe,G92 E0 ; zero extruder,G1 Y10 Z0.25 ; lift
;   layerChangeGcode,
;   retractionGcode,
;   toolChangeGcode,
;   endingGcode,G28 X0 ; home X-axis,G92 E0,G1 E-10 F1800 ; final retract,M107,M104 S0 ; turn off extruder,M140 S0 ; turn off heated bed,M84 E X Y ; disable motors,
;   exportFileFormat,gcode
;   celebration,0
;   celebrationSong,Random Song
;   postProcessing,
;   defaultSpeed,2400
;   outlineUnderspeed,0.5
;   solidInfillUnderspeed,0.8
;   supportUnderspeed,0.8
;   rapidXYspeed,5400
;   rapidZspeed,1800
;   minBridgingArea,50
;   bridgingExtraInflation,0
;   bridgingExtrusionMultiplier,1
;   bridgingSpeedMultiplier,1
;   filamentDiameter,1.75
;   filamentPricePerKg,24
;   filamentDensity,1.25
;   useMinPrintHeight,0
;   minPrintHeight,0
;   useMaxPrintHeight,0
;   maxPrintHeight,90
;   useDiaphragm,0
;   diaphragmLayerInterval,20
;   robustSlicing,1
;   mergeAllIntoSolid,0
;   onlyRetractWhenCrossingOutline,1
;   retractBetweenLayers,1
;   useRetractionMinTravel,0
;   retractionMinTravel,3
;   retractWhileWiping,0
;   onlyWipeOutlines,1
;   avoidCrossingOutline,1
;   maxMovementDetourFactor,3
;   toolChangeRetractionDistance,12
;   toolChangeExtraRestartDistance,-0.5
;   toolChangeRetractionSpeed,600
;   allowThinWallGapFill,0
;   thinWallAllowedOverlapPercentage,10
;   horizontalSizeCompensation,0
G90
M82
M106 S0
M140 S50
M190 S50
M104 S210 T0
M109 S210 T0
G28 ; home all axes
G1 X152.5 Y5 Z15 F9600 ; move to front of platform
G92 E0 ; zero extruder
G1 E40 F120 ; purge nozzle
G92 E0 ; zero extruder
G1 X40 Y0 Z0.2 E1.0 F9600 ; back to table
G1 X0 Y0 Z0.1 E1.0 F1000 ; wipe
G92 E0 ; zero extruder
G1 Y10 Z0.25 ; lift
G92 E0
G1 E-3.0000 F4200
G1 Z0.180 F1800
; layer 1, Z = 0.18
T0
; tool H0.200 W0.720
; inner perimeter
G1 X127.915 Y125.195 F5400
G1 E-0.0500 F1260
G92 E0
G1 X134.129 Y120.680 E0.4599 F1080
G1 X141.146 Y117.556 E0.9197
G1 X148.659 Y115.959 E1.3796
G1 X156.341 Y115.959 E1.8394
G1 X163.854 Y117.556 E2.2993
G1 X170.871 Y120.680 E2.7592
G1 X177.085 Y125.195 E3.2190
G1 X182.225 Y130.904 E3.6789
G1 X186.066 Y137.556 E4.1387
G1 X188.439 Y144.861 E4.5986
G1 X189.242 Y152.500 E5.0585
G1 X188.439 Y160.139 E5.5183
G1 X186.066 Y167.444 E5.9782
G1 X182.225 Y174.096 E6.4380
G1 X177.085 Y179.805 E6.8979
G1 X170.871 Y184.320 E7.3578
G1 X163.854 Y187.444 E7.8176
G1 X156.341 Y189.041 E8.2775
G1 X148.659 Y189.041 E8.7373
G1 X141.146 Y187.444 E9.1972
G1 X134.129 Y184.320 E9.6571
G1 X127.915 Y179.805 E10.1169
G1 X122.775 Y174.096 E10.5768
G1 X118.934 Y167.444 E11.0366
G1 X116.561 Y160.139 E11.4965
G1 X115.758 Y152.500 E11.9564
G1 X116.561 Y144.861 E12.4162
G1 X118.934 Y137.556 E12.8761
G1 X122.775 Y130.904 E13.3359
G1 X127.781 Y125.344 E13.7838
G1 X127.915 Y125.195 F1080
; inner perimeter
G1 X127.430 Y124.657 F5400
G92 E0
G1 X133.767 Y120.053 E0.4689 F960
G1 X140.922 Y116.868 E0.9378
G1 X148.584 Y115.239 E1.4068
G1 X156.416 Y115.239 E1.8757
G1 X164.078 Y116.868 E2.3446
G1 X171.233 Y120.053 E2.8135
G1 X177.570 Y124.657 E3.2824
G1 X182.811 Y130.478 E3.7514
G1 X186.727 Y137.261 E4.2203
G1 X189.147 Y144.710 E4.6892
G1 X189.966 Y152.500 E5.1581
G1 X189.147 Y160.290 E5.6271
G1 X186.727 Y167.739 E6.0960
G1 X182.811 Y174.522 E6.5649
G1 X177.570 Y180.343 E7.0338
G1 X171.233 Y184.947 E7.5027
G1 X164.078 Y188.132 E7.9717
G1 X156.416 Y189.761 E8.4406
G1 X148.584 Y189.761 E8.9095
G1 X140.922 Y188.132 E9.3784
G1 X133.767 Y184.947 E9.8473
G1 X127.430 Y180.343 E10.3163
G1 X122.189 Y174.522 E10.7852
G1 X118.273 Y167.739 E11.2541
G1 X115.853 Y160.290 E11.7230
G1 X115.034 Y152.500 E12.1919
G1 X115.853 Y144.710 E12.6609
G1 X118.273 Y137.261 E13.1298
G1 X122.189 Y130.478 E13.5987
G1 X127.296 Y124.806 E14.0557
G1 X127.430 Y124.657 F960
; inner perimeter
G1 X126.946 Y124.119 F5400
G92 E0
G1 X133.405 Y119.426 E0.4780 F840
G1 X140.699 Y116.179 E0.9560
G1 X148.508 Y114.519 E1.4339
G1 X156.492 Y114.519 E1.9119
G1 X164.301 Y116.179 E2.3899
G1 X171.595 Y119.426 E2.8679
G1 X178.054 Y124.119 E3.3459
G1 X183.396 Y130.052 E3.8239
G1 X187.388 Y136.967 E4.3018
G1 X189.856 Y144.560 E4.7798
G1 X190.690 Y152.500 E5.2578
G1 X189.856 Y160.440 E5.7358
G1 X187.388 Y168.033 E6.2138
G1 X183.396 Y174.948 E6.6917
G1 X178.054 Y180.881 E7.1697
G1 X171.595 Y185.574 E7.6477
G1 X164.301 Y188.821 E8.1257
G1 X156.492 Y190.481 E8.6037
G1 X148.508 Y190.481 E9.0817
G1 X140.699 Y188.821 E9.5596
G1 X133.405 Y185.574 E10.0376
G1 X126.946 Y180.881 E10.5156
G1 X121.604 Y174.948 E10.9936
G1 X117.612 Y168.033 E11.4716
G1 X115.144 Y160.440 E11.9496
G1 X114.310 Y152.500 E12.4275
G1 X115.144 Y144.560 E12.9055
G1 X117.612 Y136.967 E13.3835
G1 X121.604 Y130.052 E13.8615
G1 X126.812 Y124.268 E14.3275
G1 X126.946 Y124.119 F840
; inner perimeter
G1 X126.461 Y123.581 F5400
G92 E0
G1 X133.043 Y118.799 E0.4870 F720
G1 X140.475 Y115.490 E0.9741
G1 X148.432 Y113.799 E1.4611
G1 X156.568 Y113.799 E1.9482
G1 X164.525 Y115.491 E2.4352
G1 X171.957 Y118.799 E2.9223
G1 X178.539 Y123.581 E3.4093
G1 X183.982 Y129.627 E3.8963
G1 X188.050 Y136.672 E4.3834
G1 X190.564 Y144.409 E4.8704
G1 X191.414 Y152.500 E5.3575
G1 X190.564 Y160.591 E5.8445
G1 X188.050 Y168.328 E6.3316
G1 X183.982 Y175.373 E6.8186
G1 X178.539 Y181.419 E7.3056
G1 X171.957 Y186.201 E7.7927
G1 X164.525 Y189.509 E8.2797
G1 X156.568 Y191.201 E8.7668
G1 X148.432 Y191.201 E9.2538
G1 X140.475 Y189.509 E9.7409
G1 X133.043 Y186.201 E10.2279
G1 X126.461 Y181.419 E10.7150
G1 X121.018 Y175.373 E11.2020
G1 X116.950 Y168.328 E11.6890
G1 X114.436 Y160.591 E12.1761
G1 X113.586 Y152.500 E12.6631
G1 X114.436 Y144.409 E13.1502
G1 X116.950 Y136.672 E13.6372
G1 X121.018 Y129.627 E14.1243
G1 X126.328 Y123.730 E14.5993
G1 X126.461 Y123.581 F720
; outer perimeter
G1 X125.977 Y123.043 F5400
G92 E0
G1 X132.681 Y118.172 E0.4961 F600
G1 X140.251 Y114.802 E0.9922
G1 X148.357 Y113.079 E1.4883
G1 X156.643 Y113.079 E1.9844
G1 X164.749 Y114.802 E2.4805
G1 X172.319 Y118.172 E2.9766
G1 X179.023 Y123.043 E3.4727
G1 X184.568 Y129.201 E3.9688
G1 X188.711 Y136.378 E4.4649
G1 X191.272 Y144.259 E4.9610
G1 X192.138 Y152.500 E5.4571
G1 X191.272 Y160.741 E5.9533
G1 X188.711 Y168.622 E6.4494
G1 X184.568 Y175.799 E6.9455
G1 X179.023 Y181.957 E7.4416
G1 X172.319 Y186.827 E7.9377
G1 X164.749 Y190.198 E8.4338
G1 X156.643 Y191.921 E8.9299
G1 X148.357 Y191.921 E9.4260
G1 X140.251 Y190.198 E9.9221
G1 X132.681 Y186.827 E10.4182
G1 X125.977 Y181.957 E10.9143
G1 X120.432 Y175.799 E11.4104
G1 X116.289 Y168.622 E11.9065
G1 X113.728 Y160.741 E12.4026
G1 X112.862 Y152.500 E12.8987
G1 X113.728 Y144.259 E13.3948
G1 X116.289 Y136.378 E13.8909
G1 X120.432 Y129.201 E14.3870
G1 X125.843 Y123.192 E14.8712
G1 X125.977 Y123.043 F600
G1 X127.595 Y121.868 F2400
; solid layer
G1 X176.274 Y125.362 F5400
G92 E0
G1 X177.661 Y126.749 E0.1174 F960
G1 X181.727 Y131.265 E0.4812
G1 X182.504 Y132.610 E0.5742
G1 X172.550 Y122.657 E1.4169
G1 X170.563 Y121.213 E1.5640
G1 X169.707 Y120.832 E1.6201
G1 X183.895 Y135.019 E2.8213
G1 X185.286 Y137.429 E2.9878
G1 X167.872 Y120.015 E4.4622
G1 X166.037 Y119.198 E4.5824
G1 X185.917 Y139.078 E6.2656
G1 X186.407 Y140.586 E6.3606
G1 X164.201 Y118.381 E8.2406
G1 X163.664 Y118.141 E8.2759
G1 X162.749 Y117.947 E8.3318
G1 X186.897 Y142.095 E10.3763
G1 X187.387 Y143.603 E10.4713
G1 X161.456 Y117.672 E12.6668
G1 X160.163 Y117.397 E12.7459
G1 X187.847 Y145.081 E15.0898
G1 X187.967 Y146.219 E15.1583
G1 X158.870 Y117.122 E17.6218
G1 X157.577 Y116.848 E17.7010
G1 X188.086 Y147.357 E20.2841
G1 X188.206 Y148.495 E20.3526
G1 X156.284 Y116.573 E23.0553
G1 X156.276 Y116.571 E23.0557
G1 X155.264 Y116.571 E23.1163
G1 X188.325 Y149.632 E25.9155
G1 X188.445 Y150.770 E25.9840
G1 X154.246 Y116.571 E28.8796
G1 X153.228 Y116.571 E28.9405
G1 X188.565 Y151.908 E31.9324
G1 X188.627 Y152.500 E31.9680
G1 X188.580 Y152.942 E31.9946
G1 X152.209 Y116.571 E35.0740
G1 X151.191 Y116.571 E35.1350
G1 X188.483 Y153.863 E38.2924
G1 X188.387 Y154.785 E38.3479
G1 X150.173 Y116.571 E41.5833
G1 X149.155 Y116.571 E41.6443
G1 X188.290 Y155.706 E44.9577
G1 X188.193 Y156.628 E45.0132
G1 X148.239 Y116.674 E48.3959
G1 X147.400 Y116.853 E48.4473
G1 X188.096 Y157.549 E51.8929
G1 X187.999 Y158.470 E51.9484
G1 X146.560 Y117.031 E55.4569
G1 X145.720 Y117.210 E55.5083
G1 X187.902 Y159.392 E59.0797
G1 X187.837 Y160.011 E59.1170
G1 X187.755 Y160.263 E59.1329
G1 X144.880 Y117.388 E62.7630
G1 X144.041 Y117.567 E62.8144
G1 X187.506 Y161.032 E66.4944
G1 X187.256 Y161.800 E66.5428
G1 X143.201 Y117.745 E70.2728
G1 X142.361 Y117.923 E70.3242
G1 X187.006 Y162.569 E74.1041
G1 X186.757 Y163.337 E74.1525
G1 X141.521 Y118.102 E77.9824
G1 X141.336 Y118.141 E77.9937
G1 X140.787 Y118.386 E78.0297
G1 X186.507 Y164.106 E81.9007
G1 X186.257 Y164.874 E81.9491
G1 X140.082 Y118.700 E85.8585
G1 X139.378 Y119.013 E85.9047
G1 X186.007 Y165.643 E89.8526
G1 X185.758 Y166.411 E89.9010
G1 X138.673 Y119.327 E93.8875
G1 X137.969 Y119.641 E93.9337
G1 X185.508 Y167.180 E97.9586
G1 X185.503 Y167.194 E97.9595
G1 X185.138 Y167.828 E98.0033
G1 X137.264 Y119.954 E102.0566
G1 X136.560 Y120.268 E102.1028
G1 X184.765 Y168.473 E106.1841
G1 X184.392 Y169.119 E106.2288
G1 X135.855 Y120.582 E110.3382
G1 X135.151 Y120.895 E110.3844
G1 X184.020 Y169.764 E114.5219
G1 X183.647 Y170.410 E114.5666
G1 X134.446 Y121.209 E118.7322
G1 X134.437 Y121.213 E118.7328
G1 X133.855 Y121.636 E118.7759
G1 X183.274 Y171.055 E122.9601
G1 X182.901 Y171.701 E123.0047
G1 X133.265 Y122.064 E127.2072
G1 X132.675 Y122.493 E127.2509
G1 X182.529 Y172.346 E131.4718
G1 X182.156 Y172.992 E131.5164
G1 X132.086 Y122.921 E135.7557
G1 X131.496 Y123.350 E135.7993
G1 X181.783 Y173.637 E140.0570
G1 X181.727 Y173.735 E140.0637
G1 X181.317 Y174.190 E140.1004
G1 X130.906 Y123.778 E144.3686
G1 X130.316 Y124.207 E144.4122
G1 X180.835 Y174.726 E148.6894
G1 X180.353 Y175.261 E148.7326
G1 X129.727 Y124.635 E153.0189
G1 X129.137 Y125.064 E153.0626
G1 X179.870 Y175.797 E157.3580
G1 X179.388 Y176.333 E157.4012
G1 X128.547 Y125.492 E161.7057
G1 X128.326 Y125.653 E161.7220
G1 X128.024 Y125.988 E161.7490
G1 X178.905 Y176.869 E166.0569
G1 X178.423 Y177.405 E166.1001
G1 X127.542 Y126.524 E170.4080
G1 X127.060 Y127.060 E170.4511
G1 X177.940 Y177.940 E174.7590
G1 X177.458 Y178.476 E174.8022
G1 X126.577 Y127.595 E179.1101
G1 X126.095 Y128.131 E179.1533
G1 X176.976 Y179.012 E183.4612
G1 X176.674 Y179.347 E183.4882
G1 X176.453 Y179.508 E183.5045
G1 X125.612 Y128.667 E187.8090
G1 X125.130 Y129.203 E187.8522
G1 X175.863 Y179.936 E192.1476
G1 X175.273 Y180.365 E192.1912
G1 X124.647 Y129.739 E196.4776
G1 X124.165 Y130.274 E196.5207
G1 X174.684 Y180.793 E200.7980
G1 X174.094 Y181.222 E200.8416
G1 X123.683 Y130.810 E205.1098
G1 X123.273 Y131.265 E205.1464
G1 X123.217 Y131.362 E205.1531
G1 X173.504 Y181.650 E209.4108
G1 X172.914 Y182.079 E209.4545
G1 X122.844 Y132.008 E213.6938
G1 X122.471 Y132.654 E213.7384
G1 X172.325 Y182.507 E217.9593
G1 X171.735 Y182.935 E218.0029
G1 X122.099 Y133.299 E222.2055
G1 X121.726 Y133.945 E222.2501
G1 X171.145 Y183.364 E226.4343
G1 X170.563 Y183.787 E226.4773
G1 X170.554 Y183.791 E226.4779
G1 X121.353 Y134.590 E230.6436
G1 X120.980 Y135.236 E230.6882
G1 X169.849 Y184.105 E234.8258
G1 X169.145 Y184.418 E234.8720
G1 X120.608 Y135.881 E238.9814
G1 X120.235 Y136.527 E239.0260
G1 X168.440 Y184.732 E243.1074
G1 X167.736 Y185.046 E243.1536
G1 X119.862 Y137.172 E247.2068
G1 X119.497 Y137.806 E247.2506
G1 X119.492 Y137.820 E247.2515
G1 X167.031 Y185.359 E251.2765
G1 X166.327 Y185.673 E251.3227
G1 X119.242 Y138.589 E255.3092
G1 X118.993 Y139.357 E255.3575
G1 X165.622 Y185.987 E259.3055
G1 X164.918 Y186.300 E259.3517
G1 X118.743 Y140.126 E263.2611
G1 X118.493 Y140.894 E263.3095
G1 X164.213 Y186.614 E267.1804
G1 X163.664 Y186.859 E267.2164
G1 X163.479 Y186.898 E267.2278
G1 X118.243 Y141.663 E271.0577
G1 X117.994 Y142.431 E271.1061
G1 X162.639 Y187.076 E274.8860
G1 X161.799 Y187.255 E274.9374
G1 X117.744 Y143.200 E278.6674
G1 X117.494 Y143.968 E278.7158
G1 X160.959 Y187.433 E282.3958
G1 X160.120 Y187.612 E282.4472
G1 X117.245 Y144.737 E286.0773
G1 X117.163 Y144.989 E286.0932
G1 X117.098 Y145.608 E286.1304
G1 X159.280 Y187.790 E289.7019
G1 X158.440 Y187.969 E289.7533
