; G-Code generated by Simplify3D(R) Version 3.1.1
; Feb 12, 2017 at 9:38:59 AM
; Settings Summary
;   processName,HD Glass
;   applyToModels,facetedcup
;   profileName,Type A Machines 2014 Series 1 (modified)
;   profileVersion,2017-02-06 10:58:35
;   baseProfile,
;   printMaterial,PLA
;   printQuality,Fast
;   printExtruders,
;   extruderName,Primary Extruder
;   extruderToolheadNumber,0
;   extruderDiameter,0.4
;   extruderAutoWidth,1
;   extruderWidth,0.48
;   extrusionMultiplier,1
;   extruderUseRetract,1
;   extruderRetractionDistance,3
;   extruderExtraRestartDistance,-0.05
;   extruderRetractionZLift,0
;   extruderRetractionSpeed,4200
;   extruderUseCoasting,1
;   extruderCoastingDistance,0.2
;   extruderUseWipe,1
;   extruderWipeDistance,2
;   primaryExtruder,0
;   layerHeight,0.4
;   topSolidLayers,3
;   bottomSolidLayers,3
;   perimeterOutlines,2
;   printPerimetersInsideOut,1
;   startPointOption,2
;   startPointOriginX,0
;   startPointOriginY,0
;   startPointOriginZ,300
;   sequentialIslands,0
;   spiralVaseMode,0
;   firstLayerHeightPercentage,90
;   firstLayerWidthPercentage,150
;   firstLayerUnderspeed,0.5
;   useRaft,0
;   raftExtruder,0
;   raftLayers,3
;   raftOffset,3
;   raftSeparationDistance,0.14
;   raftInfill,85
;   disableRaftBaseLayers,0
;   useSkirt,0
;   skirtExtruder,0
;   skirtLayers,1
;   skirtOutlines,8
;   skirtOffset,0
;   usePrimePillar,0
;   primePillarExtruder,999
;   primePillarWidth,12
;   primePillarLocation,7
;   primePillarSpeedMultiplier,1
;   useOozeShield,0
;   oozeShieldExtruder,999
;   oozeShieldOffset,2
;   oozeShieldOutlines,1
;   oozeShieldSidewallShape,1
;   oozeShieldSidewallAngle,30
;   oozeShieldSpeedMultiplier,1
;   infillExtruder,0
;   internalInfillPattern,Rectilinear
;   externalInfillPattern,Rectilinear
;   infillPercentage,0
;   outlineOverlapPercentage,15
;   infillExtrusionWidthPercentage,100
;   minInfillLength,2
;   infillLayerInterval,1
;   infillAngles,45,-45
;   overlapInfillAngles,0
;   generateSupport,0
;   supportExtruder,0
;   supportInfillPercentage,25
;   supportExtraInflation,0
;   denseSupportLayers,0
;   denseSupportInfillPercentage,70
;   supportLayerInterval,1
;   supportHorizontalPartOffset,0.3
;   supportUpperSeparationLayers,1
;   supportLowerSeparationLayers,1
;   supportType,0
;   supportGridSpacing,4
;   maxOverhangAngle,45
;   supportAngles,0
;   temperatureName,Primary Extruder,Heated Bed
;   temperatureNumber,0,1
;   temperatureSetpointCount,1,1
;   temperatureSetpointLayers,1,1
;   temperatureSetpointTemperatures,210,50
;   temperatureStabilizeAtStartup,1,1
;   temperatureHeatedBed,0,1
;   temperatureRelayBetweenLayers,0,0
;   temperatureRelayBetweenLoops,0,0
;   fanLayers,1,3
;   fanSpeeds,0,20
;   blipFanToFullPower,1
;   adjustSpeedForCooling,1
;   minSpeedLayerTime,15
;   minCoolingSpeedSlowdown,20
;   increaseFanForCooling,0
;   minFanLayerTime,45
;   maxCoolingFanSpeed,100
;   increaseFanForBridging,0
;   bridgingFanSpeed,100
;   use5D,1
;   relativeEdistances,0
;   allowEaxisZeroing,1
;   independentExtruderAxes,0
;   includeM10123,0
;   stickySupport,1
;   applyToolheadOffsets,0
;   gcodeXoffset,0
;   gcodeYoffset,0
;   gcodeZoffset,0
;   overrideMachineDefinition,1
;   machineTypeOverride,0
;   strokeXoverride,305
;   strokeYoverride,305
;   strokeZoverride,305
;   originOffsetXoverride,0
;   originOffsetYoverride,0
;   originOffsetZoverride,0
;   homeXdirOverride,-1
;   homeYdirOverride,-1
;   homeZdirOverride,-1
;   flipXoverride,1
;   flipYoverride,-1
;   flipZoverride,1
;   toolheadOffsets,0,0|0,0|0,0|0,0|0,0|0,0
;   overrideFirmwareConfiguration,1
;   firmwareTypeOverride,RepRap (Marlin/Repetier/Sprinter)
;   GPXconfigOverride,r2
;   baudRateOverride,230400
;   overridePrinterModels,1
;   printerModelsOverride
;   startingGcode,G28 ; home all axes,G1 X152.5 Y5 Z15 F9600 ; move to front of platform,G92 E0 ; zero extruder,G1 E40 F120 ; purge nozzle,G92 E0 ; zero extruder,G1 X40 Y0 Z0.2 E1.0 F9600 ; back to table,G1 X0 Y0 Z0.1 E1.0 F1000 ; wipe,G92 E0 ; zero extruder,G1 Y10 Z0.25 ; lift
;   layerChangeGcode,
;   retractionGcode,
;   toolChangeGcode,
;   endingGcode,G28 X0 ; home X-axis,G92 E0,G1 E-10 F1800 ; final retract,M107,M104 S0 ; turn off extruder,M140 S0 ; turn off heated bed,M84 E X Y ; disable motors,
;   exportFileFormat,gcode
;   celebration,0
;   celebrationSong,Random Song
;   postProcessing,
;   defaultSpeed,2700
;   outlineUnderspeed,0.5
;   solidInfillUnderspeed,0.8
;   supportUnderspeed,0.8
;   rapidXYspeed,5400
;   rapidZspeed,1800
;   minBridgingArea,50
;   bridgingExtraInflation,0
;   bridgingExtrusionMultiplier,1
;   bridgingSpeedMultiplier,1
;   filamentDiameter,1.75
;   filamentPricePerKg,24
;   filamentDensity,1.25
;   useMinPrintHeight,0
;   minPrintHeight,0
;   useMaxPrintHeight,0
;   maxPrintHeight,90
;   useDiaphragm,0
;   diaphragmLayerInterval,20
;   robustSlicing,1
;   mergeAllIntoSolid,0
;   onlyRetractWhenCrossingOutline,1
;   retractBetweenLayers,1
;   useRetractionMinTravel,0
;   retractionMinTravel,3
;   retractWhileWiping,0
;   onlyWipeOutlines,1
;   avoidCrossingOutline,1
;   maxMovementDetourFactor,3
;   toolChangeRetractionDistance,12
;   toolChangeExtraRestartDistance,-0.5
;   toolChangeRetractionSpeed,600
;   allowThinWallGapFill,0
;   thinWallAllowedOverlapPercentage,10
;   horizontalSizeCompensation,0
G90
M82
M106 S0
M140 S50
M190 S50
M104 S210 T0
M109 S210 T0
G28 ; home all axes
G1 X152.5 Y5 Z15 F9600 ; move to front of platform
G92 E0 ; zero extruder
G1 E40 F120 ; purge nozzle
G92 E0 ; zero extruder
G1 X40 Y0 Z0.2 E1.0 F9600 ; back to table
G1 X0 Y0 Z0.1 E1.0 F1000 ; wipe
G92 E0 ; zero extruder
G1 Y10 Z0.25 ; lift
G92 E0
G1 E-3.0000 F4200
G1 Z0.360 F1800
; layer 1, Z = 0.36
T0
; tool H0.400 W0.720
; inner perimeter
G1 X125.029 Y125.165 F5400
G1 E-0.0500 F1260
G92 E0
G1 X152.112 Y113.946 E3.5101 F1012
G1 X152.404 Y113.746 E3.5525
G1 X179.488 Y124.964 E7.0626
G1 X179.835 Y125.029 E7.1049
G1 X191.054 Y152.112 E10.6150
G1 X191.254 Y152.404 E10.6574
G1 X180.036 Y179.488 E14.1675
G1 X179.971 Y179.835 E14.2098
G1 X152.888 Y191.054 E17.7199
G1 X152.596 Y191.254 E17.7623
G1 X125.512 Y180.036 E21.2724
G1 X125.165 Y179.971 E21.3147
G1 X113.946 Y152.888 E24.8248
G1 X113.746 Y152.596 E24.8672
G1 X124.964 Y125.512 E28.3773
G1 X124.992 Y125.361 E28.3957
G1 X125.029 Y125.165 F1012
; outer perimeter
G1 X124.392 Y124.649 F5400
G92 E0
G1 X151.767 Y113.310 E3.5478 F675
G1 X152.318 Y112.931 E3.6279
G1 X179.693 Y124.270 E7.1758
G1 X180.351 Y124.392 E7.2559
G1 X191.690 Y151.767 E10.8037
G1 X192.069 Y152.318 E10.8838
G1 X180.730 Y179.693 E14.4317
G1 X180.608 Y180.351 E14.5118
G1 X153.233 Y191.690 E18.0596
G1 X152.682 Y192.069 E18.1397
G1 X125.307 Y180.730 E21.6876
G1 X124.649 Y180.608 E21.7677
G1 X113.310 Y153.233 E25.3155
G1 X112.931 Y152.682 E25.3956
G1 X124.270 Y125.307 E28.9435
G1 X124.356 Y124.846 E28.9996
G1 X124.392 Y124.649 F675
G1 X126.240 Y123.884 F2700
; solid layer
G1 X177.929 Y124.981 F5400
G92 E0
G1 X180.019 Y127.071 E0.3538 F1080
G1 X180.739 Y128.809 E0.5791
G1 X176.191 Y124.261 E1.3492
G1 X174.453 Y123.541 E1.5745
G1 X181.459 Y130.547 E2.7608
G1 X182.179 Y132.285 E2.9861
G1 X172.715 Y122.821 E4.5887
G1 X170.976 Y122.101 E4.8140
G1 X182.899 Y134.024 E6.8328
G1 X183.619 Y135.762 E7.0581
G1 X169.238 Y121.381 E9.4932
G1 X167.500 Y120.661 E9.7185
G1 X184.339 Y137.500 E12.5699
G1 X185.059 Y139.238 E12.7952
G1 X165.762 Y119.941 E16.0628
G1 X164.023 Y119.221 E16.2881
G1 X185.779 Y140.977 E19.9720
G1 X186.499 Y142.715 E20.1972
G1 X162.285 Y118.501 E24.2974
G1 X160.547 Y117.781 E24.5227
G1 X187.219 Y144.453 E29.0391
G1 X187.939 Y146.191 E29.2643
G1 X158.809 Y117.061 E34.1970
G1 X157.071 Y116.341 E34.4223
G1 X188.659 Y147.929 E39.7712
G1 X189.379 Y149.668 E39.9965
G1 X155.332 Y115.621 E45.7617
G1 X153.594 Y114.901 E45.9870
G1 X190.099 Y151.406 E52.1684
G1 X190.513 Y152.406 E52.2980
G1 X190.562 Y152.477 E52.3083
G1 X190.441 Y152.767 E52.3459
G1 X152.233 Y114.559 E58.8158
G1 X151.513 Y114.857 E58.9091
G1 X190.143 Y153.487 E65.4505
G1 X189.845 Y154.207 E65.5438
G1 X150.793 Y115.155 E72.1565
G1 X150.073 Y115.453 E72.2498
G1 X189.547 Y154.927 E78.9340
G1 X189.249 Y155.647 E79.0273
G1 X149.353 Y115.751 E85.7829
G1 X148.633 Y116.050 E85.8762
G1 X188.950 Y156.367 E92.7033
G1 X188.652 Y157.087 E92.7966
G1 X147.913 Y116.348 E99.6950
G1 X147.193 Y116.646 E99.7883
G1 X188.354 Y157.807 E106.7582
G1 X188.056 Y158.527 E106.8515
G1 X146.473 Y116.944 E113.8928
G1 X145.753 Y117.243 E113.9861
G1 X187.757 Y159.247 E121.0988
G1 X187.459 Y159.967 E121.1921
G1 X145.033 Y117.541 E128.3762
G1 X144.313 Y117.839 E128.4695
G1 X187.161 Y160.687 E135.7250
G1 X186.863 Y161.407 E135.8183
G1 X143.593 Y118.137 E143.1453
G1 X142.873 Y118.436 E143.2386
G1 X186.564 Y162.127 E150.6370
G1 X186.266 Y162.847 E150.7303
G1 X142.153 Y118.734 E158.2001
G1 X141.433 Y119.032 E158.2934
G1 X185.968 Y163.567 E165.8346
G1 X185.670 Y164.287 E165.9279
G1 X140.713 Y119.330 E173.5405
G1 X139.993 Y119.628 E173.6338
G1 X185.371 Y165.007 E181.3179
G1 X185.073 Y165.727 E181.4112
G1 X139.273 Y119.927 E189.1667
G1 X138.553 Y120.225 E189.2600
G1 X184.775 Y166.447 E197.0869
G1 X184.477 Y167.167 E197.1802
G1 X137.833 Y120.523 E205.0785
G1 X137.113 Y120.821 E205.1718
G1 X184.179 Y167.887 E213.1415
G1 X183.880 Y168.607 E213.2348
G1 X136.393 Y121.120 E221.2760
G1 X135.673 Y121.418 E221.3693
G1 X183.582 Y169.327 E229.4818
G1 X183.284 Y170.047 E229.5752
G1 X134.953 Y121.716 E237.7591
G1 X134.233 Y122.014 E237.8525
G1 X182.986 Y170.767 E246.1079
G1 X182.687 Y171.487 E246.2012
G1 X133.513 Y122.313 E254.5280
G1 X132.793 Y122.611 E254.6213
G1 X182.389 Y172.207 E263.0195
G1 X182.091 Y172.927 E263.1128
G1 X132.073 Y122.909 E271.5825
G1 X131.353 Y123.207 E271.6758
G1 X181.793 Y173.647 E280.2169
G1 X181.494 Y174.367 E280.3102
G1 X130.633 Y123.506 E288.9227
G1 X129.913 Y123.804 E289.0160
G1 X181.196 Y175.087 E297.6999
G1 X180.898 Y175.807 E297.7932
G1 X129.193 Y124.102 E306.5486
G1 X128.473 Y124.400 E306.6419
G1 X180.600 Y176.527 E315.4686
G1 X180.302 Y177.247 E315.5620
G1 X127.753 Y124.698 E324.4601
G1 X127.033 Y124.997 E324.5534
G1 X180.003 Y177.967 E333.5230
G1 X179.705 Y178.687 E333.6163
G1 X126.313 Y125.295 E342.6574
G1 X125.593 Y125.593 E342.7507
G1 X179.407 Y179.407 E351.8631
G1 X178.687 Y179.705 E351.9564
G1 X125.295 Y126.313 E360.9974
G1 X124.997 Y127.033 E361.0907
G1 X177.967 Y180.003 E370.0603
G1 X177.247 Y180.302 E370.1536
G1 X124.698 Y127.753 E379.0518
G1 X124.400 Y128.473 E379.1451
G1 X176.527 Y180.600 E387.9719
G1 X175.807 Y180.898 E388.0652
G1 X124.102 Y129.193 E396.8205
G1 X123.804 Y129.913 E396.9138
G1 X175.087 Y181.196 E405.5978
G1 X174.367 Y181.494 E405.6911
G1 X123.506 Y130.633 E414.3036
G1 X123.207 Y131.353 E414.3969
G1 X173.647 Y181.793 E422.9380
G1 X172.927 Y182.091 E423.0313
G1 X122.909 Y132.073 E431.5009
G1 X122.611 Y132.793 E431.5943
G1 X172.207 Y182.389 E439.9925
G1 X171.487 Y182.687 E440.0858
G1 X122.313 Y133.513 E448.4126
G1 X122.014 Y134.233 E448.5059
G1 X170.767 Y182.986 E456.7613
G1 X170.047 Y183.284 E456.8547
G1 X121.716 Y134.953 E465.0386
G1 X121.418 Y135.673 E465.1319
G1 X169.327 Y183.582 E473.2445
G1 X168.607 Y183.880 E473.3378
G1 X121.120 Y136.393 E481.3790
G1 X120.821 Y137.113 E481.4723
G1 X167.887 Y184.179 E489.4420
G1 X167.167 Y184.477 E489.5353
G1 X120.523 Y137.833 E497.4336
G1 X120.225 Y138.553 E497.5269
G1 X166.447 Y184.775 E505.3538
G1 X165.727 Y185.073 E505.4471
G1 X119.927 Y139.273 E513.2026
G1 X119.628 Y139.993 E513.2959
G1 X165.007 Y185.371 E520.9800
G1 X164.287 Y185.670 E521.0733
G1 X119.330 Y140.713 E528.6859
G1 X119.032 Y141.433 E528.7792
G1 X163.567 Y185.968 E536.3204
G1 X162.847 Y186.266 E536.4137
G1 X118.734 Y142.153 E543.8835
G1 X118.436 Y142.873 E543.9768
G1 X162.127 Y186.564 E551.3752
G1 X161.407 Y186.863 E551.4685
G1 X118.137 Y143.593 E558.7955
G1 X117.839 Y144.313 E558.8888
G1 X160.687 Y187.161 E566.1443
G1 X159.967 Y187.459 E566.2376
G1 X117.541 Y145.033 E573.4217
G1 X117.243 Y145.753 E573.5151
G1 X159.247 Y187.757 E580.6278
G1 X158.527 Y188.056 E580.7211
G1 X116.944 Y146.473 E587.7623
G1 X116.646 Y147.193 E587.8557
G1 X157.807 Y188.354 E594.8255
G1 X157.087 Y188.652 E594.9188
G1 X116.348 Y147.913 E601.8173
G1 X116.050 Y148.633 E601.9106
G1 X156.367 Y188.950 E608.7376
G1 X155.647 Y189.249 E608.8309
G1 X115.751 Y149.353 E615.5865
G1 X115.453 Y150.073 E615.6798
G1 X154.927 Y189.547 E622.3640
G1 X154.207 Y189.845 E622.4573
G1 X115.155 Y150.793 E629.0701
G1 X114.857 Y151.513 E629.1634
G1 X153.487 Y190.143 E635.7047
G1 X152.767 Y190.441 E635.7980
G1 X114.559 Y152.233 E642.2680
G1 X114.438 Y152.523 E642.3056
G1 X114.487 Y152.594 E642.3158
G1 X114.901 Y153.594 E642.4454
G1 X151.406 Y190.099 E648.6269
G1 X149.668 Y189.379 E648.8522
G1 X115.621 Y155.332 E654.6174
G1 X116.341 Y157.071 E654.8426
G1 X147.929 Y188.659 E660.1916
G1 X146.191 Y187.939 E660.4169
G1 X117.061 Y158.809 E665.3495
G1 X117.781 Y160.547 E665.5748
G1 X144.453 Y187.219 E670.0912
G1 X142.715 Y186.499 E670.3165
G1 X118.501 Y162.285 E674.4167
G1 X119.221 Y164.023 E674.6419
G1 X140.977 Y185.779 E678.3259
G1 X139.238 Y185.059 E678.5511
G1 X119.941 Y165.762 E681.8188
G1 X120.661 Y167.500 E682.0441
G1 X137.500 Y184.339 E684.8954
G1 X135.762 Y183.619 E685.1207
G1 X121.381 Y169.238 E687.5558
G1 X122.101 Y170.976 E687.7811
G1 X134.024 Y182.899 E689.8000
G1 X132.285 Y182.179 E690.0253
G1 X122.821 Y172.715 E691.6279
G1 X123.541 Y174.453 E691.8532
G1 X130.547 Y181.459 E693.0395
G1 X128.809 Y180.739 E693.2648
G1 X124.261 Y176.191 E694.0349
G1 X124.981 Y177.929 E694.2602
G1 X126.927 Y179.876 E694.5897
G1 X127.071 Y180.019 F1080
G92 E0
G1 E-3.0000 F4200
; layer 2, Z = 0.76
; tool H0.400 W0.480
; inner perimeter
G1 X127.496 Y181.001 F5400
G1 Z0.760 F1800
G1 E-0.0500 F4200
G92 E0
G1 X125.277 Y180.590 E0.1801 F2025
G1 X114.666 Y154.972 E2.3935
G1 X113.388 Y153.113 E2.5736
G1 X123.999 Y127.496 E4.7869
G1 X124.410 Y125.277 E4.9671
G1 X150.028 Y114.666 E7.1804
G1 X151.887 Y113.388 E7.3605
G1 X177.504 Y123.999 E9.5739
G1 X179.723 Y124.410 E9.7540
G1 X190.334 Y150.028 E11.9673
G1 X191.612 Y151.887 E12.1475
G1 X181.001 Y177.504 E14.3608
G1 X180.590 Y179.723 E14.5409
G1 X154.972 Y190.334 E16.7543
G1 X153.113 Y191.612 E16.9344
G1 X127.681 Y181.077 E19.1318
G1 X127.496 Y181.001 F2025
; outer perimeter
G1 X127.359 Y181.464 F5400
G92 E0
G1 X124.933 Y181.014 E0.1969 F1350
G1 X114.242 Y155.203 E2.4270
G1 X112.845 Y153.170 E2.6239
G1 X123.536 Y127.359 E4.8540
G1 X123.986 Y124.933 E5.0509
G1 X149.797 Y114.242 E7.2811
G1 X151.830 Y112.845 E7.4780
G1 X177.641 Y123.536 E9.7081
G1 X180.067 Y123.986 E9.9050
G1 X190.758 Y149.797 E12.1351
G1 X192.155 Y151.830 E12.3320
G1 X181.464 Y177.641 E14.5621
G1 X181.014 Y180.067 E14.7590
G1 X155.203 Y190.758 E16.9891
G1 X153.170 Y192.155 E17.1860
G1 X127.543 Y181.540 E19.4002
G1 X127.359 Y181.464 F1350
G1 X125.392 Y181.099 F2700
; solid layer
G1 X180.309 Y178.997 F5400
G92 E0
G1 X179.625 Y179.681 E0.0772 F2160
G1 X178.466 Y180.161 E0.1774
G1 X180.464 Y178.163 E0.4029
G1 X180.607 Y177.388 E0.4658
G1 X180.641 Y177.307 E0.4728
G1 X177.307 Y180.641 E0.8490
G1 X176.149 Y181.121 E0.9492
G1 X181.121 Y176.149 E1.5105
G1 X181.601 Y174.990 E1.6106
G1 X174.990 Y181.601 E2.3569
G1 X173.831 Y182.081 E2.4570
G1 X182.081 Y173.831 E3.3883
G1 X182.561 Y172.672 E3.4884
G1 X172.672 Y182.561 E4.6047
G1 X171.513 Y183.041 E4.7048
G1 X183.041 Y171.513 E6.0062
G1 X183.521 Y170.355 E6.1063
G1 X170.355 Y183.521 E7.5926
G1 X169.196 Y184.001 E7.6927
G1 X184.001 Y169.196 E9.3640
G1 X184.481 Y168.037 E9.4641
G1 X168.037 Y184.481 E11.3205
G1 X166.878 Y184.961 E11.4206
G1 X184.961 Y166.878 E13.4619
G1 X185.441 Y165.719 E13.5620
G1 X165.719 Y185.441 E15.7883
G1 X164.560 Y185.921 E15.8885
G1 X185.921 Y164.560 E18.2998
G1 X186.401 Y163.402 E18.3999
G1 X163.402 Y186.401 E20.9963
G1 X162.243 Y186.881 E21.0964
G1 X186.881 Y162.243 E23.8777
G1 X187.361 Y161.084 E23.9778
G1 X161.084 Y187.361 E26.9442
G1 X159.925 Y187.841 E27.0443
G1 X187.841 Y159.925 E30.1956
G1 X188.321 Y158.766 E30.2958
G1 X158.766 Y188.321 E33.6321
G1 X157.608 Y188.801 E33.7322
