; G-Code generated by Simplify3D(R) Version 3.1.1
; Feb 12, 2017 at 9:04:36 PM
; Settings Summary
;   processName,HD Glass
;   applyToModels,facetedcup2
;   profileName,Type A Machines 2014 Series 1 (modified)
;   profileVersion,2017-02-06 10:58:35
;   baseProfile,
;   printMaterial,PLA
;   printQuality,Fast
;   printExtruders,
;   extruderName,Primary Extruder
;   extruderToolheadNumber,0
;   extruderDiameter,0.4
;   extruderAutoWidth,1
;   extruderWidth,0.48
;   extrusionMultiplier,1
;   extruderUseRetract,1
;   extruderRetractionDistance,3
;   extruderExtraRestartDistance,-0.05
;   extruderRetractionZLift,0
;   extruderRetractionSpeed,4200
;   extruderUseCoasting,1
;   extruderCoastingDistance,0.2
;   extruderUseWipe,1
;   extruderWipeDistance,2
;   primaryExtruder,0
;   layerHeight,0.2
;   topSolidLayers,3
;   bottomSolidLayers,3
;   perimeterOutlines,3
;   printPerimetersInsideOut,1
;   startPointOption,2
;   startPointOriginX,0
;   startPointOriginY,0
;   startPointOriginZ,300
;   sequentialIslands,0
;   spiralVaseMode,0
;   firstLayerHeightPercentage,90
;   firstLayerWidthPercentage,150
;   firstLayerUnderspeed,0.5
;   useRaft,0
;   raftExtruder,0
;   raftLayers,3
;   raftOffset,3
;   raftSeparationDistance,0.14
;   raftInfill,85
;   disableRaftBaseLayers,0
;   useSkirt,0
;   skirtExtruder,0
;   skirtLayers,1
;   skirtOutlines,8
;   skirtOffset,0
;   usePrimePillar,0
;   primePillarExtruder,999
;   primePillarWidth,12
;   primePillarLocation,7
;   primePillarSpeedMultiplier,1
;   useOozeShield,0
;   oozeShieldExtruder,999
;   oozeShieldOffset,2
;   oozeShieldOutlines,1
;   oozeShieldSidewallShape,1
;   oozeShieldSidewallAngle,30
;   oozeShieldSpeedMultiplier,1
;   infillExtruder,0
;   internalInfillPattern,Rectilinear
;   externalInfillPattern,Rectilinear
;   infillPercentage,0
;   outlineOverlapPercentage,15
;   infillExtrusionWidthPercentage,100
;   minInfillLength,2
;   infillLayerInterval,1
;   infillAngles,45,-45
;   overlapInfillAngles,0
;   generateSupport,0
;   supportExtruder,0
;   supportInfillPercentage,25
;   supportExtraInflation,0
;   denseSupportLayers,0
;   denseSupportInfillPercentage,70
;   supportLayerInterval,1
;   supportHorizontalPartOffset,0.3
;   supportUpperSeparationLayers,1
;   supportLowerSeparationLayers,1
;   supportType,0
;   supportGridSpacing,4
;   maxOverhangAngle,45
;   supportAngles,0
;   temperatureName,Primary Extruder,Heated Bed
;   temperatureNumber,0,1
;   temperatureSetpointCount,1,1
;   temperatureSetpointLayers,1,1
;   temperatureSetpointTemperatures,210,50
;   temperatureStabilizeAtStartup,1,1
;   temperatureHeatedBed,0,1
;   temperatureRelayBetweenLayers,0,0
;   temperatureRelayBetweenLoops,0,0
;   fanLayers,1,3
;   fanSpeeds,0,50
;   blipFanToFullPower,1
;   adjustSpeedForCooling,1
;   minSpeedLayerTime,15
;   minCoolingSpeedSlowdown,20
;   increaseFanForCooling,0
;   minFanLayerTime,45
;   maxCoolingFanSpeed,100
;   increaseFanForBridging,0
;   bridgingFanSpeed,100
;   use5D,1
;   relativeEdistances,0
;   allowEaxisZeroing,1
;   independentExtruderAxes,0
;   includeM10123,0
;   stickySupport,1
;   applyToolheadOffsets,0
;   gcodeXoffset,0
;   gcodeYoffset,0
;   gcodeZoffset,0
;   overrideMachineDefinition,1
;   machineTypeOverride,0
;   strokeXoverride,305
;   strokeYoverride,305
;   strokeZoverride,305
;   originOffsetXoverride,0
;   originOffsetYoverride,0
;   originOffsetZoverride,0
;   homeXdirOverride,-1
;   homeYdirOverride,-1
;   homeZdirOverride,-1
;   flipXoverride,1
;   flipYoverride,-1
;   flipZoverride,1
;   toolheadOffsets,0,0|0,0|0,0|0,0|0,0|0,0
;   overrideFirmwareConfiguration,1
;   firmwareTypeOverride,RepRap (Marlin/Repetier/Sprinter)
;   GPXconfigOverride,r2
;   baudRateOverride,230400
;   overridePrinterModels,1
;   printerModelsOverride
;   startingGcode,G28 ; home all axes,G1 X152.5 Y5 Z15 F9600 ; move to front of platform,G92 E0 ; zero extruder,G1 E40 F120 ; purge nozzle,G92 E0 ; zero extruder,G1 X40 Y0 Z0.2 E1.0 F9600 ; back to table,G1 X0 Y0 Z0.1 E1.0 F1000 ; wipe,G92 E0 ; zero extruder,G1 Y10 Z0.25 ; lift
;   layerChangeGcode,
;   retractionGcode,
;   toolChangeGcode,
;   endingGcode,G28 X0 ; home X-axis,G92 E0,G1 E-10 F1800 ; final retract,M107,M104 S0 ; turn off extruder,M140 S0 ; turn off heated bed,M84 E X Y ; disable motors,
;   exportFileFormat,gcode
;   celebration,0
;   celebrationSong,Random Song
;   postProcessing,
;   defaultSpeed,2400
;   outlineUnderspeed,0.5
;   solidInfillUnderspeed,0.8
;   supportUnderspeed,0.8
;   rapidXYspeed,5400
;   rapidZspeed,1800
;   minBridgingArea,50
;   bridgingExtraInflation,0
;   bridgingExtrusionMultiplier,1
;   bridgingSpeedMultiplier,1
;   filamentDiameter,1.75
;   filamentPricePerKg,24
;   filamentDensity,1.25
;   useMinPrintHeight,0
;   minPrintHeight,0
;   useMaxPrintHeight,0
;   maxPrintHeight,90
;   useDiaphragm,0
;   diaphragmLayerInterval,20
;   robustSlicing,1
;   mergeAllIntoSolid,0
;   onlyRetractWhenCrossingOutline,1
;   retractBetweenLayers,1
;   useRetractionMinTravel,0
;   retractionMinTravel,3
;   retractWhileWiping,0
;   onlyWipeOutlines,1
;   avoidCrossingOutline,1
;   maxMovementDetourFactor,3
;   toolChangeRetractionDistance,12
;   toolChangeExtraRestartDistance,-0.5
;   toolChangeRetractionSpeed,600
;   allowThinWallGapFill,0
;   thinWallAllowedOverlapPercentage,10
;   horizontalSizeCompensation,0
G90
M82
M106 S0
M140 S50
M190 S50
M104 S210 T0
M109 S210 T0
G28 ; home all axes
G1 X152.5 Y5 Z15 F9600 ; move to front of platform
G92 E0 ; zero extruder
G1 E40 F120 ; purge nozzle
G92 E0 ; zero extruder
G1 X40 Y0 Z0.2 E1.0 F9600 ; back to table
G1 X0 Y0 Z0.1 E1.0 F1000 ; wipe
G92 E0 ; zero extruder
G1 Y10 Z0.25 ; lift
G92 E0
G1 E-3.0000 F4200
G1 Z0.180 F1800
; layer 1, Z = 0.18
T0
; tool H0.200 W0.720
; inner perimeter
G1 X126.946 Y124.119 F5400
G1 E-0.0500 F1260
G92 E0
G1 X133.405 Y119.426 E0.4780 F1000
G1 X140.699 Y116.179 E0.9560
G1 X148.508 Y114.519 E1.4339
G1 X156.492 Y114.519 E1.9119
G1 X164.301 Y116.179 E2.3899
G1 X171.595 Y119.426 E2.8679
G1 X178.054 Y124.119 E3.3459
G1 X183.396 Y130.052 E3.8239
G1 X187.388 Y136.967 E4.3018
G1 X189.856 Y144.560 E4.7798
G1 X190.690 Y152.496 E5.2575
G1 X189.856 Y160.440 E5.7358
G1 X187.388 Y168.033 E6.2138
G1 X183.396 Y174.948 E6.6917
G1 X178.054 Y180.881 E7.1697
G1 X171.595 Y185.574 E7.6477
G1 X164.301 Y188.821 E8.1257
G1 X156.492 Y190.481 E8.6037
G1 X148.508 Y190.481 E9.0817
G1 X140.699 Y188.821 E9.5596
G1 X133.405 Y185.574 E10.0376
G1 X126.946 Y180.881 E10.5156
G1 X121.604 Y174.948 E10.9936
G1 X117.612 Y168.033 E11.4716
G1 X115.144 Y160.440 E11.9496
G1 X114.310 Y152.504 E12.4273
G1 X115.144 Y144.560 E12.9055
G1 X117.612 Y136.967 E13.3835
G1 X121.604 Y130.052 E13.8615
G1 X126.812 Y124.268 E14.3275
G1 X126.946 Y124.119 F1000
; inner perimeter
G1 X126.461 Y123.581 F5400
G92 E0
G1 X133.043 Y118.799 E0.4870 F800
G1 X140.475 Y115.490 E0.9741
G1 X148.432 Y113.799 E1.4611
G1 X156.568 Y113.799 E1.9482
G1 X164.525 Y115.491 E2.4352
G1 X171.957 Y118.799 E2.9223
G1 X178.539 Y123.581 E3.4093
G1 X183.982 Y129.627 E3.8963
G1 X188.050 Y136.672 E4.3834
G1 X190.564 Y144.409 E4.8704
G1 X191.414 Y152.496 E5.3572
G1 X190.564 Y160.591 E5.8445
G1 X188.050 Y168.328 E6.3316
G1 X183.982 Y175.373 E6.8186
G1 X178.539 Y181.419 E7.3056
G1 X171.957 Y186.201 E7.7927
G1 X164.525 Y189.509 E8.2797
G1 X156.568 Y191.201 E8.7668
G1 X148.432 Y191.201 E9.2538
G1 X140.475 Y189.509 E9.7409
G1 X133.043 Y186.201 E10.2279
G1 X126.461 Y181.419 E10.7149
G1 X121.018 Y175.373 E11.2020
G1 X116.950 Y168.328 E11.6890
G1 X114.436 Y160.591 E12.1761
G1 X113.586 Y152.504 E12.6629
G1 X114.436 Y144.409 E13.1502
G1 X116.950 Y136.672 E13.6372
G1 X121.018 Y129.627 E14.1242
G1 X126.328 Y123.730 E14.5993
G1 X126.461 Y123.581 F800
; outer perimeter
G1 X125.977 Y123.043 F5400
G92 E0
G1 X132.681 Y118.172 E0.4961 F600
G1 X140.251 Y114.802 E0.9922
G1 X148.357 Y113.079 E1.4883
G1 X156.643 Y113.079 E1.9844
G1 X164.749 Y114.802 E2.4805
G1 X172.319 Y118.172 E2.9766
G1 X179.023 Y123.043 E3.4727
G1 X184.568 Y129.201 E3.9688
G1 X188.711 Y136.378 E4.4649
G1 X191.272 Y144.259 E4.9610
G1 X192.138 Y152.496 E5.4569
G1 X191.272 Y160.741 E5.9532
G1 X188.711 Y168.622 E6.4494
G1 X184.568 Y175.799 E6.9455
G1 X179.023 Y181.957 E7.4416
G1 X172.319 Y186.827 E7.9377
G1 X164.749 Y190.198 E8.4338
G1 X156.643 Y191.921 E8.9299
G1 X148.357 Y191.921 E9.4260
G1 X140.251 Y190.198 E9.9221
G1 X132.681 Y186.827 E10.4182
G1 X125.977 Y181.957 E10.9143
G1 X120.432 Y175.799 E11.4104
G1 X116.289 Y168.622 E11.9065
G1 X113.728 Y160.741 E12.4026
G1 X112.862 Y152.504 E12.8984
G1 X113.728 Y144.259 E13.3948
G1 X116.289 Y136.378 E13.8909
G1 X120.432 Y129.201 E14.3870
G1 X125.843 Y123.192 E14.8711
G1 X125.977 Y123.043 F600
G1 X127.595 Y121.868 F2400
; solid layer
G1 X177.212 Y124.264 F5400
G92 E0
G1 X178.706 Y125.758 E0.1265 F960
G1 X182.899 Y130.414 E0.5016
G1 X183.656 Y131.726 E0.5923
G1 X173.489 Y121.559 E1.4531
G1 X171.287 Y119.959 E1.6160
G1 X170.537 Y119.625 E1.6652
G1 X185.047 Y134.135 E2.8937
G1 X186.438 Y136.544 E3.0603
G1 X168.702 Y118.808 E4.5619
G1 X166.866 Y117.991 E4.6822
G1 X187.179 Y138.304 E6.4021
G1 X187.670 Y139.813 E6.4970
G1 X165.031 Y117.174 E8.4138
G1 X164.111 Y116.764 E8.4741
G1 X163.466 Y116.627 E8.5135
G1 X188.160 Y141.321 E10.6043
G1 X188.650 Y142.829 E10.6992
G1 X162.173 Y116.352 E12.9409
G1 X160.880 Y116.077 E13.0201
G1 X189.140 Y144.337 E15.4128
G1 X189.254 Y144.688 E15.4348
G1 X189.345 Y145.561 E15.4874
G1 X159.587 Y115.803 E18.0070
G1 X158.294 Y115.528 E18.0861
G1 X189.465 Y146.699 E20.7253
G1 X189.585 Y147.837 E20.7938
G1 X157.000 Y115.253 E23.5526
G1 X156.428 Y115.131 E23.5876
G1 X155.860 Y115.131 E23.6216
G1 X189.704 Y148.975 E26.4870
G1 X189.824 Y150.113 E26.5555
G1 X154.842 Y115.131 E29.5173
G1 X153.824 Y115.131 E29.5782
G1 X189.943 Y151.250 E32.6363
G1 X190.063 Y152.388 E32.7048
G1 X152.806 Y115.131 E35.8593
G1 X151.788 Y115.131 E35.9202
G1 X189.987 Y153.330 E39.1544
G1 X189.890 Y154.252 E39.2099
G1 X150.769 Y115.131 E42.5221
G1 X149.751 Y115.131 E42.5830
G1 X189.793 Y155.173 E45.9733
G1 X189.696 Y156.095 E46.0287
G1 X148.733 Y115.131 E49.4970
G1 X148.572 Y115.131 E49.5066
G1 X147.865 Y115.281 E49.5499
G1 X189.600 Y157.016 E53.0834
G1 X189.503 Y157.938 E53.1389
G1 X147.025 Y115.460 E56.7353
G1 X146.185 Y115.638 E56.7867
G1 X189.406 Y158.859 E60.4461
G1 X189.309 Y159.781 E60.5015
G1 X145.346 Y115.817 E64.2238
G1 X144.506 Y115.995 E64.2752
G1 X189.148 Y160.637 E68.0549
G1 X188.898 Y161.406 E68.1032
G1 X143.666 Y116.174 E71.9329
G1 X142.826 Y116.352 E71.9843
G1 X188.649 Y162.174 E75.8639
G1 X188.399 Y162.943 E75.9122
G1 X141.987 Y116.531 E79.8418
G1 X141.147 Y116.709 E79.8932
G1 X188.149 Y163.711 E83.8727
G1 X187.899 Y164.480 E83.9211
G1 X140.401 Y116.982 E87.9426
G1 X139.696 Y117.295 E87.9888
G1 X187.650 Y165.249 E92.0488
G1 X187.400 Y166.017 E92.0972
G1 X138.992 Y117.609 E96.1957
G1 X138.287 Y117.923 E96.2419
G1 X187.150 Y166.786 E100.3790
G1 X186.901 Y167.554 E100.4273
G1 X137.583 Y118.236 E104.6029
G1 X136.878 Y118.550 E104.6491
G1 X186.565 Y168.236 E108.8558
G1 X186.192 Y168.882 E108.9005
G1 X136.174 Y118.864 E113.1353
G1 X135.469 Y119.177 E113.1815
G1 X185.819 Y169.527 E117.4445
G1 X185.446 Y170.173 E117.4891
G1 X134.765 Y119.491 E121.7801
G1 X134.060 Y119.805 E121.8263
G1 X185.074 Y170.818 E126.1455
G1 X184.701 Y171.464 E126.1901
G1 X133.414 Y120.177 E130.5324
G1 X132.824 Y120.605 E130.5761
G1 X184.328 Y172.110 E134.9368
G1 X183.956 Y172.755 E134.9814
G1 X132.234 Y121.034 E139.3605
G1 X131.644 Y121.462 E139.4041
G1 X183.583 Y173.401 E143.8016
G1 X183.210 Y174.046 E143.8462
G1 X131.055 Y121.891 E148.2620
G1 X130.465 Y122.319 E148.3056
G1 X182.820 Y174.674 E152.7383
G1 X182.337 Y175.209 E152.7815
G1 X129.875 Y122.747 E157.2233
G1 X129.285 Y123.176 E157.2669
G1 X181.855 Y175.745 E161.7178
G1 X181.372 Y176.281 E161.7609
G1 X128.696 Y123.604 E166.2209
G1 X128.106 Y124.033 E166.2645
G1 X180.890 Y176.817 E170.7335
G1 X180.407 Y177.353 E170.7767
G1 X127.516 Y124.461 E175.2548
G1 X127.358 Y124.577 E175.2666
G1 X127.005 Y124.968 E175.2981
G1 X179.925 Y177.888 E179.7787
G1 X179.442 Y178.424 E179.8218
G1 X126.522 Y125.504 E184.3024
G1 X126.040 Y126.040 E184.3456
G1 X178.960 Y178.960 E188.8261
G1 X178.478 Y179.496 E188.8693
G1 X125.558 Y126.576 E193.3498
G1 X125.075 Y127.112 E193.3930
G1 X177.995 Y180.032 E197.8736
G1 X177.642 Y180.423 E197.9051
G1 X177.484 Y180.539 E197.9169
G1 X124.593 Y127.647 E202.3950
G1 X124.110 Y128.183 E202.4381
G1 X176.894 Y180.967 E206.9072
G1 X176.304 Y181.396 E206.9508
G1 X123.628 Y128.719 E211.4107
G1 X123.145 Y129.255 E211.4539
G1 X175.715 Y181.824 E215.9048
G1 X175.125 Y182.253 E215.9484
G1 X122.663 Y129.791 E220.3902
G1 X122.180 Y130.326 E220.4333
G1 X174.535 Y182.681 E224.8660
G1 X173.945 Y183.109 E224.9097
G1 X121.790 Y130.954 E229.3255
G1 X121.417 Y131.599 E229.3701
G1 X173.356 Y183.538 E233.7676
G1 X172.766 Y183.966 E233.8112
G1 X121.044 Y132.245 E238.1903
G1 X120.672 Y132.890 E238.2349
G1 X172.176 Y184.395 E242.5956
G1 X171.586 Y184.823 E242.6393
G1 X120.299 Y133.536 E246.9816
G1 X119.926 Y134.182 E247.0262
G1 X170.940 Y185.195 E251.3454
G1 X170.235 Y185.509 E251.3915
G1 X119.554 Y134.827 E255.6826
G1 X119.181 Y135.473 E255.7272
G1 X169.531 Y185.823 E259.9902
G1 X168.826 Y186.136 E260.0364
G1 X118.808 Y136.118 E264.2712
G1 X118.435 Y136.764 E264.3158
G1 X168.122 Y186.450 E268.5226
G1 X167.417 Y186.764 E268.5688
G1 X118.099 Y137.446 E272.7444
G1 X117.850 Y138.214 E272.7927
G1 X166.713 Y187.077 E276.9298
G1 X166.008 Y187.391 E276.9760
G1 X117.600 Y138.983 E281.0745
G1 X117.350 Y139.751 E281.1229
G1 X165.304 Y187.705 E285.1829
G1 X164.599 Y188.018 E285.2291
G1 X117.101 Y140.520 E289.2506
G1 X116.851 Y141.288 E289.2990
G1 X163.853 Y188.291 E293.2785
G1 X163.013 Y188.469 E293.3299
G1 X116.601 Y142.057 E297.2595
G1 X116.351 Y142.826 E297.3078
G1 X162.174 Y188.648 E301.1874
G1 X161.334 Y188.826 E301.2388
G1 X116.102 Y143.594 E305.0685
G1 X115.852 Y144.363 E305.1168
G1 X160.494 Y189.005 E308.8965
G1 X159.654 Y189.183 E308.9479
G1 X115.691 Y145.219 E312.6702
G1 X115.594 Y146.141 E312.7256
G1 X158.815 Y189.362 E316.3850
G1 X157.975 Y189.540 E316.4364
G1 X115.497 Y147.062 E320.0328
G1 X115.400 Y147.984 E320.0883
G1 X157.135 Y189.719 E323.6218
G1 X156.428 Y189.869 E323.6651
G1 X156.267 Y189.869 E323.6747
G1 X115.304 Y148.905 E327.1430
G1 X115.207 Y149.827 E327.1984
G1 X155.249 Y189.869 E330.5887
G1 X154.231 Y189.869 E330.6496
G1 X115.110 Y150.748 E333.9618
G1 X115.013 Y151.670 E334.0173
G1 X153.212 Y189.869 E337.2515
G1 X152.194 Y189.869 E337.3124
G1 X114.937 Y152.612 E340.4669
G1 X115.057 Y153.749 E340.5354
G1 X151.176 Y189.869 E343.5935
G1 X150.158 Y189.869 E343.6544
G1 X115.176 Y154.887 E346.6162
G1 X115.296 Y156.025 E346.6847
G1 X149.140 Y189.869 E349.5501
G1 X148.572 Y189.869 E349.5841
G1 X148.000 Y189.747 E349.6191
G1 X115.415 Y157.163 E352.3779
G1 X115.535 Y158.301 E352.4464
G1 X146.706 Y189.472 E355.0856
G1 X145.413 Y189.197 E355.1648
G1 X115.655 Y159.439 E357.6843
G1 X115.746 Y160.312 E357.7369
G1 X115.860 Y160.662 E357.7590
G1 X144.120 Y188.923 E360.1517
G1 X142.827 Y188.648 E360.2308
G1 X116.350 Y162.171 E362.4725
G1 X116.840 Y163.679 E362.5675
G1 X141.534 Y188.373 E364.6582
G1 X140.889 Y188.236 E364.6977
G1 X139.969 Y187.826 E364.7579
G1 X117.330 Y165.187 E366.6747
G1 X117.821 Y166.696 E366.7697
G1 X138.134 Y187.009 E368.4895
G1 X136.298 Y186.192 E368.6098
G1 X118.562 Y168.455 E370.1115
G1 X119.953 Y170.865 E370.2780
G1 X134.463 Y185.375 E371.5066
G1 X133.713 Y185.041 E371.5557
G1 X131.512 Y183.441 E371.7186
G1 X121.344 Y173.274 E372.5795
G1 X122.101 Y174.586 E372.6702
G1 X126.294 Y179.242 E373.0453
G1 X127.646 Y180.594 E373.1598
G1 X127.788 Y180.736 F960
G92 E0
G1 E-3.0000 F4200
; layer 2, Z = 0.38
; tool H0.200 W0.480
; inner perimeter
G1 X126.542 Y181.329 F5400
G1 Z0.380 F1800
G1 E-0.0500 F4200
G92 E0
G1 X121.115 Y175.302 E0.3237 F2000
G1 X117.060 Y168.279 E0.6474
G1 X114.554 Y160.566 E0.9711
G1 X113.707 Y152.500 E1.2948
G1 X114.554 Y144.434 E1.6184
G1 X117.060 Y136.721 E1.9421
G1 X121.115 Y129.698 E2.2658
G1 X126.542 Y123.671 E2.5895
